!!!!SEGMENT: pl-cz--iii-624--001-004_raszek-waclaw--missa-in-f-cum-sancto-spiritu.krn
!!!cenid: 17xx:1062
!!!COM: Raszek, Wacław
!!!COM-rismID: pe30020314
!!!CDT: <1848->1848
!!!CNT:
!!!OPR: Missa in F
!!!OTL: Cum sancto spiritu
!!!OMV: 004
!!!PDT:
!!!AGN: Sacred; Mass
!!!SMS-siglum: PL-CZ
!!!SMS-shelfmark: III-624
!!!SMS-shelfwork: 001-004 M
!!!SMS-variant:
!!!SMS-altvar:
!!!NIFC-rismSourceID: 300001049
!!!NIFC-islandoraID: pl-cz:39539
!!!URL-pdf-islandora: https://repozytorium.nifc.pl/islandora/object/pl-cz%3A39539/datastream/PDF/view
!!!URL-scan:
!!!ONB-nifc: UWAGA: części Mszy: Kyrie, Gloria, Domine Deus, Cum sancto spiritu, Credo, Et incarnatus, Et resurrexit, Sanctus, Benedictus, Agnus Dei, Dona nobis. Uwaga: partia violino principale tylko w cz. Benedictus
!!!AIN: 1 alto 1 bass 2 cor 2 flt 1 organ 1 soprn 1 tenor 1 viola 2 violn
!!!key:
**kern	**fba	**dynam	**kern	**dynam	**kern	**dynam	**kern	**dynam	**kern	**text	**kern	**text	**dynam	**kern	**text	**kern	**text	**kern	**dynam	**kern	**dynam	**kern	**dynam	**kern	**dynam
*part12	*	*part12	*part11	*part11	*part10	*part10	*part9	*part9	*part8	*part8	*part7	*part7	*part7	*part6	*part6	*part5	*part5	*part4	*part4	*part3	*part3	*part2	*part2	*part1	*part1
*staff12	*	*	*staff11	*	*staff10	*	*staff9	*	*staff8	*	*staff7	*	*	*staff6	*staff6	*staff5	*staff5	*staff4	*	*staff3	*	*staff2	*	*staff1	*
*I"Organo.	*	*	*I"Alto Viola.	*	*I"Violino Secondo.	*	*I"Violino Primo	*	*I"Baſso.	*	*I"Tenore.	*	*	*I"Alto.	*	*I"Canto.	*	*I"Cornu 2.do in F.	*	*I"Cornu Primo. in F.	*	*I"Flauto 2do	*	*I"Flauto Primo.	*
*I'org	*	*	*I'a-vla	*	*I'vl 2	*	*I'vl 1	*	*I'B	*	*I'T	*	*	*I'A	*	*I'S	*	*I'cor 2	*	*I'cor 1	*	*I'fl 2	*	*I'fl 1	*
*Iorgan	*	*	*Iviola	*	*Ivioln	*	*Ivioln	*	*Ibass	*	*Itenor	*	*	*Ialto	*	*Isoprn	*	*Icor	*	*Icor	*	*Iflt	*	*Iflt	*
*ICklav	*	*	*ICstr	*	*ICstr	*	*ICstr	*	*ICvox	*	*ICvox	*	*	*ICvox	*	*ICvox	*	*ICbras	*	*ICbras	*	*ICww	*	*ICww	*
*IGcont	*	*	*	*	*	*	*	*	*IGcoro	*	*IGcoro	*	*	*IGcoro	*	*IGcoro	*	*	*	*	*	*	*	*	*
*clefF4	*	*	*clefC3	*	*clefG2	*	*clefG2	*	*clefF4	*	*clefC4	*	*	*clefC3	*	*clefC1	*	*clefG2	*	*clefG2	*	*clefG2	*	*clefG2	*
*	*	*	*	*	*	*	*	*	*	*	*	*	*	*	*	*	*	*ITrd4c7	*	*ITrd4c7	*	*	*	*	*
*k[b-]	*	*	*k[b-]	*	*k[b-]	*	*k[b-]	*	*k[b-]	*	*k[b-]	*	*	*k[b-]	*	*k[b-]	*	*k[b-]	*	*k[b-]	*	*k[b-]	*	*k[b-]	*
*F:	*	*	*F:	*	*F:	*	*F:	*	*F:	*	*F:	*	*	*F:	*	*F:	*	*	*	*	*	*F:	*	*F:	*
*M4/4	*	*	*M4/4	*	*M4/4	*	*M4/4	*	*M4/4	*	*M4/4	*	*	*M4/4	*	*M4/4	*	*M4/4	*	*M4/4	*	*M4/4	*	*M4/4	*
*met(c)	*	*	*met(c)	*	*met(c)	*	*met(c)	*	*met(c)	*	*met(c)	*	*	*met(c)	*	*met(c)	*	*met(c)	*	*met(c)	*	*met(c)	*	*met(c)	*
=1	=1	=1	=1	=1	=1	=1	=1	=1	=1	=1	=1	=1	=1	=1	=1	=1	=1	=1	=1	=1	=1	=1	=1	=1	=1
*	*	*	*	*	*	*	*	*	*	*	*	*	*	*	*	*	*	*2\right	*	*2\right	*	*2\right	*	*2\right	*
!LO:TX:b:i:t=Cum S(an)cto	!	!	!	!	!	!	!	!	!	!	!	!	!	!	!	!	!	!	!	!	!	!	!	!LO:TX:b:i:t=Cum S(an)cto.	!
!LO:TX:a:i:t=Adag	!	!	!	!	!	!	!	!	!	!	!	!	!	!	!	!	!	!	!	!	!	!	!	!LO:TX:b:i:t=adagio	!
!LO:TX:t=P:problem=mixed beam	!	!	!	!	!	!	!LO:TX:a:i:t=Cum S(an)cto	!	!	!	!	!	!	!	!	!	!	!LO:TX:a:i:t=Cum S(an)cto	!	!	!	!LO:TX:b:i:t=Cum S(an)cto	!	!	!
!	!	!	!LO:TX:b:i:t=Cum S(an)cto.	!	!LO:TX:b:t=Cum S(an)cto	!	!LO:TX:a:i:t=T&colon;	!	!	!	!	!	!	!	!	!	!	!	!	!LO:TX:a:i:t=adagio	!	!	!	!	!
!	!	!	!LO:TX:a:i:t=Adagio	!	!LO:TX:a:i:t=Andante.	!	!LO:TX:a:i:t=And&colon;	!	!LO:TX:a:i:t=adagio	!	!LO:TX:a:i:t=adagio	!	!	!LO:TX:a:i:t=adagio	!	!LO:TX:a:i:t=adagio	!	!LO:TX:a:i:t=adagio	!	!LO:TX:a:i:t=Cum Sancto.	!	!LO:TX:b:i:t=adagio	!	!	!
8BB-/L	.	.	8B-/L	.	8r	.	8r	.	4r	.	4r	.	.	4r	.	4r	.	2f\	.	2f\	.	2bb-\	.	2ddd\	.
8B-\	.	.	8B-/	.	8f/L	.	8dd\L	.	.	.	.	.	.	.	.	.	.	.	.	.	.	.	.	.	.
8B-\	.	.	8B-/	.	8f/	.	8dd\	.	4B-\	Cum	4B-\	Cum	.	4f\	Cum	4dd\	Cum	.	.	.	.	.	.	.	.
8B-\J	.	.	8B-/J	.	8f/J	.	8dd\J	.	.	.	.	.	.	.	.	.	.	.	.	.	.	.	.	.	.
*tremolo	*	*	*	*	*	*	*	*	*	*	*	*	*	*	*	*	*	*	*	*	*	*	*	*	*
*2\right	*	*	*tremolo	*	*	*	*	*	*	*	*	*	*	*	*	*	*	*	*	*	*	*	*	*	*
*	*	*	*	*	*tremolo	*	*	*	*2\right	*	*2\right	*	*	*2\right	*	*2\right	*	*	*	*	*	*	*	*	*
!LO:TX:t=P:problem=2\right&colon; global	!	!	!	!	!	!	!	!	!	!	!	!	!	!	!	!	!	!	!	!	!	!	!	!	!
8Bn\L	7- 5 3	.	8A-X/L	.	8f/L	.	8dd\L	.	2Bn\	San-	2A-X\	S(an)-	.	2f\	S(an)-	2dd\	San-	4f\	.	4f\	.	2aa-X\	.	4ddd\	.
8Bn\	.	.	8A-X/	.	8f/	.	8dd\	.	.	.	.	.	.	.	.	.	.	.	.	.	.	.	.	.	.
8Bn\	.	.	8A-X/	.	8f/	.	8dd\	.	.	.	.	.	.	.	.	.	.	4r	.	4r	.	.	.	4ddd\	.
8Bn\J	.	.	8A-X/J	.	8f/J	.	8dd\J	.	.	.	.	.	.	.	.	.	.	.	.	.	.	.	.	.	.
=2	=2	=2	=2	=2	=2	=2	=2	=2	=2	=2	=2	=2	=2	=2	=2	=2	=2	=2	=2	=2	=2	=2	=2	=2	=2
*	*	*	*2\right	*	*	*	*2\right	*	*	*	*	*	*	*	*	*	*	*	*	*	*	*	*	*	*
*	*	*	*	*	*	*	*tremolo	*	*	*	*	*	*	*	*	*	*	*	*	*	*	*	*	*	*
!	!	!	!	!	!	!	!LO:TX:t=P:problem=2\right&colon; global	!	!	!	!LO:SIC:v:s=2G/	!	!	!	!	!	!	!	!	!	!	!	!	!	!
8B-X\L	6 4 2#	.	8g\L	.	8e/L	.	8cc#X\L	.	2B-X\	-cto	2G#X/	-cto	.	2en\	-cto	2cc#X\	-cto	2g\	.	2g\	.	2gg\	.	2ccc#X\	.
8B-X\	.	.	8g\	.	8e/	.	8cc#X\	.	.	.	.	.	.	.	.	.	.	.	.	.	.	.	.	.	.
8B-X\	7 #	.	8g\	.	8e/	.	8cc#X\	.	.	.	.	.	.	.	.	.	.	.	.	.	.	.	.	.	.
8B-X\J	.	.	8g\J	.	8e/J	.	8cc#X\J	.	.	.	.	.	.	.	.	.	.	.	.	.	.	.	.	.	.
*	*	*	*Xtremolo	*	*Xtremolo	*	*Xtremolo	*	*	*ij	*	*ij	*	*	*ij	*	*ij	*	*	*	*	*	*	*	*
8A\L	6 4	.	8g\L	.	8e/L	.	8cc#\L	.	4A\	Cum	4An\	S(an)-	.	4e\	S(an)-	4cc#\	Cum	4g\	.	4g\	.	4gg\	.	4ccc#\	.
8A\	.	.	8g\	.	8e/	.	8cc#\	.	.	.	.	.	.	.	.	.	.	.	.	.	.	.	.	.	.
8A\	.	.	8f\	.	8f/	.	8dd\	.	8A\	San-	4A\	-cto	.	4f\	-cto	8dd\	San-	4f\	.	4f\	.	4ff\	.	4ddd\	.
8A\J	.	.	8d\J	.	8f/J	.	8dd\J	.	8A\	-cto	.	.	.	.	.	8dd\	-cto	.	.	.	.	.	.	.	.
*	*	*	*tremolo	*	*tremolo	*	*	*	*	*Xij	*	*Xij	*	*	*Xij	*	*Xij	*	*	*	*	*	*	*	*
=3	=3	=3	=3	=3	=3	=3	=3	=3	=3	=3	=3	=3	=3	=3	=3	=3	=3	=3	=3	=3	=3	=3	=3	=3	=3
8G#X\L	7 5	.	8Bn/L	.	8f/L	.	8dd\L	.	4.G#X\	Spi-	4.Bn\	Spi-	.	4.f\	Spi-	4.dd\	Spi-	2r	.	2r	.	2ff\	.	2ddd\	.
8G#X\	.	.	8Bn/	.	8f/	.	8dd\	.	.	.	.	.	.	.	.	.	.	.	.	.	.	.	.	.	.
8G#X\	.	.	8Bn/	.	8f/	.	8dd\	.	.	.	.	.	.	.	.	.	.	.	.	.	.	.	.	.	.
8G#X\J	.	.	8Bn/J	.	8f/J	.	8dd\J	.	8G#\	-ri-	8B\	-ri-	.	8f\	-ri-	8dd\	-ri-	.	.	.	.	.	.	.	.
*Xtremolo	*	*	*Xtremolo	*	*Xtremolo	*	*	*	*	*	*	*	*	*	*	*	*	*	*	*	*	*	*	*	*
!	!	!	!	!	!	!LO:DY:a:t=po	!	!LO:DY:a:t=P&colon;	!	!	!	!	!	!	!	!LO:SIC:v:s=4cc#\	!	!	!LO:DY:a:t=p	!	!LO:DY:a:t=po	!	!	!	!
8A\	#	.	8A/	.	8e/	p	(16cc#X/LL	p	4A\	-tu	8A\	-tu	.	8e\	-tu	4cc\	-tu	2A/	p	2A/	p	8ee\	.	8ccc#X\	.
.	.	.	.	.	.	.	16a/)	.	.	.	.	.	.	.	.	.	.	.	.	.	.	.	.	.	.
8r	.	.	8r	.	8r	.	16a/	.	.	.	8r	.	.	8r	.	.	.	.	.	.	.	8r	.	8r	.
.	.	.	.	.	.	.	16a/JJ	.	.	.	.	.	.	.	.	.	.	.	.	.	.	.	.	.	.
!LO:TX:a:i:t=pedale .	!	!	!	!	!	!	!	!	!	!	!	!	!	!	!	!	!	!	!	!	!	!	!	!	!
8AA/	.	.	8A/	.	8c#X/	.	16r	.	4r	.	4r	.	.	4r	.	4r	.	.	.	.	.	4cc#X\	.	4aa\	.
.	.	.	.	.	.	.	16a/LL	.	.	.	.	.	.	.	.	.	.	.	.	.	.	.	.	.	.
8r	.	.	8r	.	8r	.	16a/	.	.	.	.	.	.	.	.	.	.	.	.	.	.	.	.	.	.
.	.	.	.	.	.	.	16a/JJ	.	.	.	.	.	.	.	.	.	.	.	.	.	.	.	.	.	.
=4	=4	=4	=4	=4	=4	=4	=4	=4	=4	=4	=4	=4	=4	=4	=4	=4	=4	=4	=4	=4	=4	=4	=4	=4	=4
8AA/	.	.	8Bn/	.	8d/	.	16a/LL	.	1r	.	1r	.	.	1r	.	1r	.	1A/	.	1A/	.	4dd\	.	4gg#X\	.
.	.	.	.	.	.	.	16g#X/	.	.	.	.	.	.	.	.	.	.	.	.	.	.	.	.	.	.
8r	.	.	8r	.	8r	.	16g#/	.	.	.	.	.	.	.	.	.	.	.	.	.	.	.	.	.	.
.	.	.	.	.	.	.	16g#/JJ	.	.	.	.	.	.	.	.	.	.	.	.	.	.	.	.	.	.
8AA/	.	.	8c#X\	.	8e/	.	16r	.	.	.	.	.	.	.	.	.	.	.	.	.	.	4ee\	.	4ggn\	.
.	.	.	.	.	.	.	16gn/LL	.	.	.	.	.	.	.	.	.	.	.	.	.	.	.	.	.	.
8r	.	.	8r	.	8r	.	16b-/	.	.	.	.	.	.	.	.	.	.	.	.	.	.	.	.	.	.
.	.	.	.	.	.	.	16g/JJ	.	.	.	.	.	.	.	.	.	.	.	.	.	.	.	.	.	.
8AA/	.	.	8d\	.	8d/	.	16g/LL	.	.	.	.	.	.	.	.	.	.	.	.	.	.	2dd\	.	4ffn\	.
.	.	.	.	.	.	.	16f/	.	.	.	.	.	.	.	.	.	.	.	.	.	.	.	.	.	.
8r	.	.	8r	.	8r	.	16f/	.	.	.	.	.	.	.	.	.	.	.	.	.	.	.	.	.	.
.	.	.	.	.	.	.	16f/JJ	.	.	.	.	.	.	.	.	.	.	.	.	.	.	.	.	.	.
8AA/	.	.	8A/	.	8d/	.	16r	.	.	.	.	.	.	.	.	.	.	.	.	.	.	.	.	4ff\	.
.	.	.	.	.	.	.	16f/LL	.	.	.	.	.	.	.	.	.	.	.	.	.	.	.	.	.	.
8r	.	.	8r	.	8r	.	16g/	.	.	.	.	.	.	.	.	.	.	.	.	.	.	.	.	.	.
.	.	.	.	.	.	.	16f/JJ	.	.	.	.	.	.	.	.	.	.	.	.	.	.	.	.	.	.
=5	=5	=5	=5	=5	=5	=5	=5	=5	=5	=5	=5	=5	=5	=5	=5	=5	=5	=5	=5	=5	=5	=5	=5	=5	=5
*	*	*	*tremolo	*	*	*	*	*	*	*ij	*	*	*	*	*ij	*	*ij	*	*	*	*	*	*	*	*
!	!	!	!LO:SIC:v:s=2Bn/L	!	!	!	!	!	!	!	!	!	!LO:DY:a:t=po	!	!	!	!	!	!	!	!	!	!	!	!
8GG#X/L	7 5	.	8B-/L	.	8d/L	.	8f/L	.	4.G#X\	Spi-	4.Bn\	Spi-	p	4.d\	Spi-	4.f/	Spi-	2r	.	2r	.	2dd\	.	2ff\	.
!	!	!	!LO:SIC:v:s=2B/	!	!	!	!	!	!	!	!	!	!	!	!	!	!	!	!	!	!	!	!	!	!
8GG#/	.	.	8B-/	.	8d/	.	8f/	.	.	.	.	.	.	.	.	.	.	.	.	.	.	.	.	.	.
!	!	!	!LO:SIC:v:s=2B/	!	!	!	!	!	!	!	!	!	!	!	!	!	!	!	!	!	!	!	!	!	!
8GG#/	.	.	8B-/	.	8d/	.	8f/	.	.	.	.	.	.	.	.	.	.	.	.	.	.	.	.	.	.
!	!	!	!LO:SIC:v:s=2B/J	!	!	!	!	!	!	!	!	!	!	!	!	!	!	!	!	!	!	!	!	!	!
8GG#/J	.	.	8B-/J	.	8d/J	.	8f/J	.	8G#\	-ri-	8B\	-ri-	.	8d\	-ri-	8f/	-ri-	.	.	.	.	.	.	.	.
*	*	*	*Xtremolo	*	*	*	*	*	*	*	*	*	*	*	*	*	*	*	*	*	*	*	*	*	*
!	!	!	!	!	!	!	!	!	!	!	!	!	!	!	!	!	!	!	!	!	!	!LO:SIC:v:s=4cc#\	!	!	!
4AA;/	#	.	4A/	.	4c#X/	.	4e/	.	4A\	-tu	4A\	-tu	.	4c#X\	-tu	4e/	-tu	2A/	.	2A/	.	4cc\	.	4ee\	.
4r	.	.	4r	.	4r	.	4r	.	4r	.	4r	.	.	4r	.	4r	.	.	.	.	.	4r	.	4r	.
*	*	*	*	*	*	*	*	*	*	*Xij	*	*	*	*	*Xij	*	*Xij	*	*	*	*	*	*	*	*
!LO:LB:g=original	!	!	!LO:LB:g=original	!	!LO:LB:g=original	!	!LO:LB:g=original	!	!LO:LB:g=original	!	!LO:LB:g=original	!	!	!	!LO:LB:g=original	!LO:LB:g=original	!	!LO:LB:g=original	!	!LO:LB:g=original	!	!LO:LB:g=original	!	!LO:LB:g=original	!
=6||	=6||	=6||	=6||	=6||	=6||	=6||	=6||	=6||	=6||	=6||	=6||	=6||	=6||	=6||	=6||	=6||	=6||	=6||	=6||	=6||	=6||	=6||	=6||	=6||	=6||
*M2/2	*	*	*M2/2	*	*M2/2	*	*M2/2	*	*M2/2	*	*M2/2	*	*	*M2/2	*	*M2/2	*	*M2/2	*	*M2/2	*	*M2/2	*	*M2/2	*
*met(c|)	*	*	*met(c|)	*	*met(c|)	*	*met(c|)	*	*met(c|)	*	*met(c|)	*	*	*met(c|)	*	*met(c|)	*	*met(c|)	*	*met(c|)	*	*met(c|)	*	*met(c|)	*
!LO:TX:b:i:t=In gloria	!	!	!LO:TX:b:i:t=In gloria	!	!LO:TX:a:i:t=Allo&colon;	!	!LO:TX:a:t=13.	!	!	!	!	!	!	!	!	!	!	!	!	!LO:TX:b:i:t=In gloria	!	!	!	!LO:TX:b:i:t=In gloria	!
!LO:TX:a:i:t=Allo&colon;	!	!	!LO:TX:a:i:t=Allo&colon;	!	!LO:TX:b:i:t=In gloria	!	!LO:TX:a:t=Allo	!	!LO:TX:a:i:t=Allo&colon;	!	!LO:TX:a:i:t=Allo&colon;	!	!	!LO:TX:a:i:t=Allo&colon;	!	!LO:TX:a:i:t=Allo&colon;	!	!LO:TX:a:i:t=In gloria	!	!LO:TX:a:i:t=Allo&colon;	!	!LO:TX:a:t=In gloria	!	!LO:TX:a:i:t=Allo&colon;	!
1F\	.	.	00r	.	00r	.	00r	.	1F\	In	00r	.	.	00r	.	00r	.	00r	.	00r	.	00r	.	00r	.
=7	=7	=7	=7	=7	=7	=7	=7	=7	=7	=7	=7	=7	=7	=7	=7	=7	=7	=7	=7	=7	=7	=7	=7	=7	=7
4E\|	.	.	.	.	.	.	.	.	4E\	glo-	.	.	.	.	.	.	.	.	.	.	.	.	.	.	.
4D\|	.	.	.	.	.	.	.	.	4D\	-ri-	.	.	.	.	.	.	.	.	.	.	.	.	.	.	.
2C/|	.	.	.	.	.	.	.	.	2C/	-a	.	.	.	.	.	.	.	.	.	.	.	.	.	.	.
=8	=8	=8	=8	=8	=8	=8	=8	=8	=8	=8	=8	=8	=8	=8	=8	=8	=8	=8	=8	=8	=8	=8	=8	=8	=8
4F\	.	.	.	.	.	.	.	.	(4F\	in	.	.	.	.	.	.	.	.	.	.	.	.	.	.	.
4G\	.	.	.	.	.	.	.	.	4G\)	.	.	.	.	.	.	.	.	.	.	.	.	.	.	.	.
4A\	.	.	.	.	.	.	.	.	4A\	glo-	.	.	.	.	.	.	.	.	.	.	.	.	.	.	.
8G\L	.	.	.	.	.	.	.	.	8G\	-ri-	.	.	.	.	.	.	.	.	.	.	.	.	.	.	.
8F\J	.	.	.	.	.	.	.	.	8F\	-a	.	.	.	.	.	.	.	.	.	.	.	.	.	.	.
=9	=9	=9	=9	=9	=9	=9	=9	=9	=9	=9	=9	=9	=9	=9	=9	=9	=9	=9	=9	=9	=9	=9	=9	=9	=9
4G\	.	.	.	.	.	.	.	.	4G\	De-	.	.	.	.	.	.	.	.	.	.	.	.	.	.	.
8A\L	.	.	.	.	.	.	.	.	8A\L	-i	.	.	.	.	.	.	.	.	.	.	.	.	.	.	.
8B-\J	.	.	.	.	.	.	.	.	8B-\J	.	.	.	.	.	.	.	.	.	.	.	.	.	.	.	.
4c\	.	.	.	.	.	.	.	.	4c\	Pa-	.	.	.	.	.	.	.	.	.	.	.	.	.	.	.
4B-\	.	.	.	.	.	.	.	.	4B-\	-tris	.	.	.	.	.	.	.	.	.	.	.	.	.	.	.
=10	=10	=10	=10	=10	=10	=10	=10	=10	=10	=10	=10	=10	=10	=10	=10	=10	=10	=10	=10	=10	=10	=10	=10	=10	=10
*^	*	*	*	*	*	*	*	*	*	*	*	*	*	*	*	*	*	*	*	*	*	*	*	*	*
1c/	4A\	.	.	1c\	.	00r	.	00r	.	(4A\	a-	1c\	In	.	00r	.	00r	.	00r	.	00r	.	00r	.	00r	.
.	4G\	.	.	.	.	.	.	.	.	4G\)	.	.	.	.	.	.	.	.	.	.	.	.	.	.	.	.
.	2F\	.	.	.	.	.	.	.	.	2F\	-men	.	.	.	.	.	.	.	.	.	.	.	.	.	.	.
=11	=11	=11	=11	=11	=11	=11	=11	=11	=11	=11	=11	=11	=11	=11	=11	=11	=11	=11	=11	=11	=11	=11	=11	=11	=11	=11
4Bn/	2.G\	.	.	4Bn/	.	.	.	.	.	2.G\	a-	4Bn\	glo-	.	.	.	.	.	.	.	.	.	.	.	.	.
4A/	.	.	.	4A/	.	.	.	.	.	.	.	4A/	-ri-	.	.	.	.	.	.	.	.	.	.	.	.	.
2G/	.	.	.	2G/	.	.	.	.	.	.	.	2G/	-a	.	.	.	.	.	.	.	.	.	.	.	.	.
.	4F\	.	.	.	.	.	.	.	.	4F\	.	.	.	.	.	.	.	.	.	.	.	.	.	.	.	.
!	!	!	!	!	!	!	!	!	!	!LO:LB:g=original	!	!	!	!	!	!	!	!	!	!	!	!	!	!	!	!
=12	=12	=12	=12	=12	=12	=12	=12	=12	=12	=12	=12	=12	=12	=12	=12	=12	=12	=12	=12	=12	=12	=12	=12	=12	=12	=12
4c/	2E\	.	.	4c\	.	.	.	.	.	2E\	-men	4c\	De-	.	.	.	.	.	.	.	.	.	.	.	.	.
4d/	.	.	.	4d\	.	.	.	.	.	.	.	4d\	.	.	.	.	.	.	.	.	.	.	.	.	.	.
4e/	2c\	.	.	4e\	.	.	.	.	.	2c\	a-	4e\	.	.	.	.	.	.	.	.	.	.	.	.	.	.
8d/L	.	.	.	8d\L	.	.	.	.	.	.	.	8d\L	-i	.	.	.	.	.	.	.	.	.	.	.	.	.
8c/J	.	.	.	8c\J	.	.	.	.	.	.	.	8c\J	.	.	.	.	.	.	.	.	.	.	.	.	.	.
=13	=13	=13	=13	=13	=13	=13	=13	=13	=13	=13	=13	=13	=13	=13	=13	=13	=13	=13	=13	=13	=13	=13	=13	=13	=13	=13
4d/	2Bn\	.	.	4d\	.	.	.	.	.	2Bn\	.	4d\	Pa-	.	.	.	.	.	.	.	.	.	.	.	.	.
8e/L	.	.	.	8e\L	.	.	.	.	.	.	.	8e\L	.	.	.	.	.	.	.	.	.	.	.	.	.	.
8f/J	.	.	.	8f\J	.	.	.	.	.	.	.	8f\J	.	.	.	.	.	.	.	.	.	.	.	.	.	.
4g/	2G\	.	.	4g\	.	.	.	.	.	2G\	.	4g\	.	.	.	.	.	.	.	.	.	.	.	.	.	.
4f/	.	.	.	4f\	.	.	.	.	.	.	.	4f\	-tris	.	.	.	.	.	.	.	.	.	.	.	.	.
!LO:LB:g=original	!	!	!	!	!	!	!	!	!	!	!	!	!	!	!	!	!	!	!	!	!	!	!	!	!	!
=14	=14	=14	=14	=14	=14	=14	=14	=14	=14	=14	=14	=14	=14	=14	=14	=14	=14	=14	=14	=14	=14	=14	=14	=14	=14	=14
4e/	2.c\	.	.	4e\	.	1r	.	00r	.	2.c\	.	4e\	a-	.	1r	.	00r	.	00r	.	00r	.	00r	.	00r	.
4d/	.	.	.	4d\	.	.	.	.	.	.	.	4d\	.	.	.	.	.	.	.	.	.	.	.	.	.	.
2c/	.	.	.	2c/	.	.	.	.	.	.	.	2c\	-men	.	.	.	.	.	.	.	.	.	.	.	.	.
.	4B-\	.	.	.	.	.	.	.	.	4B-X\	.	.	.	.	.	.	.	.	.	.	.	.	.	.	.	.
*v	*v	*	*	*	*	*	*	*	*	*	*	*	*	*	*	*	*	*	*	*	*	*	*	*	*	*
=15	=15	=15	=15	=15	=15	=15	=15	=15	=15	=15	=15	=15	=15	=15	=15	=15	=15	=15	=15	=15	=15	=15	=15	=15	=15
4A\	.	.	4c/	.	1f/	.	.	.	4A\	.	4c\	a-	.	1f\	In	.	.	.	.	.	.	.	.	.	.
4G\	.	.	4B-/	.	.	.	.	.	4G\	.	4B-X\	.	.	.	.	.	.	.	.	.	.	.	.	.	.
2F\	.	.	2A/	.	.	.	.	.	2F\	-men	2A/	.	.	.	.	.	.	.	.	.	.	.	.	.	.
=16	=16	=16	=16	=16	=16	=16	=16	=16	=16	=16	=16	=16	=16	=16	=16	=16	=16	=16	=16	=16	=16	=16	=16	=16	=16
1C/	.	.	2G/	.	4e/	.	.	.	1C/	a-	2G/	-men	.	4e\	glo-	.	.	.	.	.	.	.	.	.	.
.	.	.	.	.	4d/	.	.	.	.	.	.	.	.	4d\	-ri-	.	.	.	.	.	.	.	.	.	.
.	.	.	4c/	.	2c/	.	.	.	.	.	2c\	a-	.	2c\	-a	.	.	.	.	.	.	.	.	.	.
.	.	.	4B-/	.	.	.	.	.	.	.	.	.	.	.	.	.	.	.	.	.	.	.	.	.	.
!	!	!	!LO:LB:g=original	!	!	!	!	!	!	!	!LO:LB:g=original	!	!	!	!	!	!	!	!	!	!	!	!	!	!
=17	=17	=17	=17	=17	=17	=17	=17	=17	=17	=17	=17	=17	=17	=17	=17	=17	=17	=17	=17	=17	=17	=17	=17	=17	=17
1D\	3	.	2A/	.	4f/	.	.	.	1D\	.	1F/	.	.	4f\	De-	.	.	.	.	.	.	.	.	.	.
.	.	.	.	.	4g/	.	.	.	.	.	.	.	.	4g\	.	.	.	.	.	.	.	.	.	.	.
.	.	.	2F/	.	4a/	.	.	.	.	.	.	.	.	4a\	.	.	.	.	.	.	.	.	.	.	.
.	.	.	.	.	8g/L	.	.	.	.	.	.	.	.	8g\L	-i	.	.	.	.	.	.	.	.	.	.
.	.	.	.	.	8f/J	.	.	.	.	.	.	.	.	8f\J	.	.	.	.	.	.	.	.	.	.	.
=18	=18	=18	=18	=18	=18	=18	=18	=18	=18	=18	=18	=18	=18	=18	=18	=18	=18	=18	=18	=18	=18	=18	=18	=18	=18
1En\	3	.	1d\	.	4g/	.	1r	.	1E\	.	1G/	.	.	4g\	Pa-	1r	.	00r	.	00r	.	00r	.	00r	.
.	.	.	.	.	8a/L	.	.	.	.	.	.	.	.	8a\L	.	.	.	.	.	.	.	.	.	.	.
.	.	.	.	.	8b-/J	.	.	.	.	.	.	.	.	8b-\J	.	.	.	.	.	.	.	.	.	.	.
.	6	.	.	.	4cc\	.	.	.	.	.	.	.	.	4cc\	.	.	.	.	.	.	.	.	.	.	.
.	3	.	.	.	4b-\	.	.	.	.	.	.	.	.	4b-\	-tris	.	.	.	.	.	.	.	.	.	.
=19	=19	=19	=19	=19	=19	=19	=19	=19	=19	=19	=19	=19	=19	=19	=19	=19	=19	=19	=19	=19	=19	=19	=19	=19	=19
4F\	3	.	4c/	.	4a/	.	1cc\	.	4F\	.	4c\	.	.	4a\	a-	1cc\	In	.	.	.	.	.	.	.	.
4G\	8	.	4B-/	.	4g/	.	.	.	4G\	.	4B-\	.	.	4g\	.	.	.	.	.	.	.	.	.	.	.
2A\	6	.	2A/	.	2f/	.	.	.	2A\	-men	2A\	.	.	2f\	-men	.	.	.	.	.	.	.	.	.	.
*clefC4	*	*	*	*	*	*	*	*	*	*	*	*	*	*	*	*	*	*	*	*	*	*	*	*	*
=20	=20	=20	=20	=20	=20	=20	=20	=20	=20	=20	=20	=20	=20	=20	=20	=20	=20	=20	=20	=20	=20	=20	=20	=20	=20
1G/	n	.	1G/	.	2d/	.	4bn/	.	00r	.	1G/	.	.	2d\	a-	4bn\	glo-	.	.	.	.	.	.	.	.
.	.	.	.	.	.	.	4a/	.	.	.	.	.	.	.	.	4a\	-ri-	.	.	.	.	.	.	.	.
.	.	.	.	.	4g/	.	2g/	.	.	.	.	.	.	4g\	.	2g\	-a	.	.	.	.	.	.	.	.
.	.	.	.	.	4f/	.	.	.	.	.	.	.	.	4f\	.	.	.	.	.	.	.	.	.	.	.
!	!	!	!	!	!	!	!	!	!	!	!	!	!	!LO:LB:g=original	!	!	!	!	!	!	!	!	!	!	!
=21	=21	=21	=21	=21	=21	=21	=21	=21	=21	=21	=21	=21	=21	=21	=21	=21	=21	=21	=21	=21	=21	=21	=21	=21	=21
1A\	3	.	1A/	.	2e/	.	4cc\	.	.	.	1A\	.	.	2e\	.	4cc\	De-	.	.	.	.	.	.	.	.
.	.	.	.	.	.	.	4dd\	.	.	.	.	.	.	.	.	4dd\	.	.	.	.	.	.	.	.	.
.	.	.	.	.	2c/	.	4ee\	.	.	.	.	.	.	2c\	-men	4ee\	.	.	.	.	.	.	.	.	.
.	.	.	.	.	.	.	8dd\L	.	.	.	.	.	.	.	.	8dd\L	-i	.	.	.	.	.	.	.	.
.	.	.	.	.	.	.	8cc\J	.	.	.	.	.	.	.	.	8cc\J	.	.	.	.	.	.	.	.	.
!	!	!	!	!	!LO:LB:g=original	!	!	!	!	!	!	!	!	!	!	!	!	!	!	!	!	!	!	!	!
=22	=22	=22	=22	=22	=22	=22	=22	=22	=22	=22	=22	=22	=22	=22	=22	=22	=22	=22	=22	=22	=22	=22	=22	=22	=22
1Bn\	3	.	1Bn/	.	1d/	.	4dd\	.	.	.	1Bn\	.	.	1d\	a-	4dd\	Pa-	0r	.	0r	.	0r	.	0r	.
.	.	.	.	.	.	.	8ee\L	.	.	.	.	.	.	.	.	8ee\L	.	.	.	.	.	.	.	.	.
.	.	.	.	.	.	.	8ff\J	.	.	.	.	.	.	.	.	8ff\J	.	.	.	.	.	.	.	.	.
.	6	.	.	.	.	.	4gg\	.	.	.	.	.	.	.	.	4gg\	.	.	.	.	.	.	.	.	.
.	5	.	.	.	.	.	4ff\	.	.	.	.	.	.	.	.	4ff\	-tris	.	.	.	.	.	.	.	.
=23	=23	=23	=23	=23	=23	=23	=23	=23	=23	=23	=23	=23	=23	=23	=23	=23	=23	=23	=23	=23	=23	=23	=23	=23	=23
4c\	10 3	.	4c\	.	4e/	.	4ee\	.	.	.	4c\	.	.	4e\	.	(4ee\	a-	.	.	.	.	.	.	.	.
4d\	83	.	4d\	.	4f/	.	4dd\	.	.	.	4d\	.	.	4f\	.	4dd\	.	.	.	.	.	.	.	.	.
2e\	6	.	2e\	.	2g/	.	4cc\	.	.	.	2e\	.	.	2g\	.	4cc\	.	.	.	.	.	.	.	.	.
.	5	.	.	.	.	.	4b-\	.	.	.	.	.	.	.	.	4b-X\)	.	.	.	.	.	.	.	.	.
=24	=24	=24	=24	=24	=24	=24	=24	=24	=24	=24	=24	=24	=24	=24	=24	=24	=24	=24	=24	=24	=24	=24	=24	=24	=24
*clefF4	*	*	*	*	*	*	*	*	*	*	*	*	*	*	*	*	*	*	*	*	*	*	*	*	*
1F/	5 4	.	2f\	.	2c/	.	2a/	.	1F\	In	2f\	-men	.	2c\	.	2a\	.	2f\	.	2f\	.	4r	.	4r	.
.	.	.	.	.	.	.	.	.	.	.	.	.	.	.	.	.	.	.	.	.	.	4ff\	.	4ff\	.
.	3	.	4f\	.	2d/	.	4a/	.	.	.	2r	.	.	2d\	.	4a\	-men	4r	.	4a\	.	4aa\	.	4aa\	.
.	4	.	4g\	.	.	.	4bn\	.	.	.	.	.	.	.	.	4bn\	a-	4g\	.	4bX\	.	4gg\	.	4bbn\	.
!	!	!	!	!	!	!	!	!	!	!	!	!	!	!	!	!LO:LB:g=original	!	!	!	!	!	!	!	!	!
=25	=25	=25	=25	=25	=25	=25	=25	=25	=25	=25	=25	=25	=25	=25	=25	=25	=25	=25	=25	=25	=25	=25	=25	=25	=25
4E\	6	.	1g\	.	4g/	.	1cc\	.	4E\	glo-	0r	.	.	4g\	.	2cc\	-men	2g\	.	1cc\	.	4gg\	.	1ccc\	.
4D/	.	.	.	.	4f/	.	.	.	4D\	-ri-	.	.	.	4f\	.	.	.	.	.	.	.	4ff\	.	.	.
2C/	.	.	.	.	2e/	.	.	.	2C/	-a	.	.	.	2e\	.	2cc\	in	2c/	.	.	.	2ee\	.	.	.
!LO:LB:g=original	!	!	!	!	!	!	!	!	!LO:PB:g=original	!	!	!	!	!	!	!	!	!	!	!	!	!	!	!	!
=26	=26	=26	=26	=26	=26	=26	=26	=26	=26	=26	=26	=26	=26	=26	=26	=26	=26	=26	=26	=26	=26	=26	=26	=26	=26
4D\	7	.	4d\	.	1d/	.	2cc\	.	4D\	De-	.	.	.	1d\	.	2cc\	glo-	2f\	.	2cc\	.	2ff\	.	2ccc\	.
8E\L	.	.	8e\L	.	.	.	.	.	8E\L	.	.	.	.	.	.	.	.	.	.	.	.	.	.	.	.
8F\J	.	.	8f\J	.	.	.	.	.	8F\J	.	.	.	.	.	.	.	.	.	.	.	.	.	.	.	.
4G\	n	.	4g\	.	.	.	2bn\	.	4G\	.	.	.	.	.	.	4bn\	-ri-	2g\	.	2bX\	.	2dd\	.	2bbn\	.
4F\	.	.	4f\	.	.	.	.	.	4F\	-i	.	.	.	.	.	4b\	-a	.	.	.	.	.	.	.	.
=27	=27	=27	=27	=27	=27	=27	=27	=27	=27	=27	=27	=27	=27	=27	=27	=27	=27	=27	=27	=27	=27	=27	=27	=27	=27
4E\	6	.	4e\	.	2g/	.	2cc\	.	4E\	Pa-	1r	.	.	2g\	.	2cc\	De-	2c/	.	2cc\	.	2gg\	.	1ccc\	.
8F\L	.	.	8f\L	.	.	.	.	.	8F\L	.	.	.	.	.	.	.	.	.	.	.	.	.	.	.	.
8G\J	.	.	8g\J	.	.	.	.	.	8G\J	.	.	.	.	.	.	.	.	.	.	.	.	.	.	.	.
!	!	!	!LO:LB:g=original	!	!	!	!	!	!	!	!	!	!	!	!	!	!	!	!	!	!	!	!	!	!
4A\	3	.	4a\	.	2e/	.	2cc\	.	4A\	.	.	.	.	2e\	.	2cc\	-i	2r	.	2r	.	2ee\	.	.	.
4G\	.	.	4g\	.	.	.	.	.	4G\	.	.	.	.	.	.	.	.	.	.	.	.	.	.	.	.
=28	=28	=28	=28	=28	=28	=28	=28	=28	=28	=28	=28	=28	=28	=28	=28	=28	=28	=28	=28	=28	=28	=28	=28	=28	=28
4F#X\	6 5	.	2a\	.	1d/	.	2cc\	.	4F#X\	.	2r	.	.	1d\	.	2cc\	Pa-	0r	.	0r	.	2aa\	.	2ccc\	.
8E\L	.	.	.	.	.	.	.	.	8E\L	.	.	.	.	.	.	.	.	.	.	.	.	.	.	.	.
8F#\J	.	.	.	.	.	.	.	.	8F#\J	.	.	.	.	.	.	.	.	.	.	.	.	.	.	.	.
4G\	-	.	2g\	.	.	.	2b-X\	.	4G\	.	2G/	a-	.	.	.	2b-X\	-tris	.	.	.	.	2gg\	.	2bb-X\	.
4Fn\	.	.	.	.	.	.	.	.	4Fn\	.	.	.	.	.	.	.	.	.	.	.	.	.	.	.	.
!	!	!	!	!	!	!	!LO:LB:g=original	!	!	!	!	!	!	!	!	!	!	!	!	!	!	!	!	!	!
=29	=29	=29	=29	=29	=29	=29	=29	=29	=29	=29	=29	=29	=29	=29	=29	=29	=29	=29	=29	=29	=29	=29	=29	=29	=29
4E\	6 5	.	2g\	.	2g/	.	2b-\	.	4E\	.	2G/	-men	.	2g\	.	2b-\	a-	.	.	.	.	2gg\	.	2bb-\	.
8D\L	.	.	.	.	.	.	.	.	8D\L	.	.	.	.	.	.	.	.	.	.	.	.	.	.	.	.
8E\J	.	.	.	.	.	.	.	.	8E\J	.	.	.	.	.	.	.	.	.	.	.	.	.	.	.	.
2F\	3	.	2f\	.	2a/	.	4a\	.	2F\	.	2A/	a-	.	2a\	.	4a\	-men	.	.	.	.	4ff\	.	4aa\	.
.	6	.	.	.	.	.	4dd\	.	.	.	.	.	.	.	.	4dd\	a-	.	.	.	.	4aa\	.	4ddd\	.
!	!	!	!	!	!	!	!	!	!	!	!LO:LB:g=original	!	!	!	!	!	!	!	!	!	!	!	!	!	!
=30	=30	=30	=30	=30	=30	=30	=30	=30	=30	=30	=30	=30	=30	=30	=30	=30	=30	=30	=30	=30	=30	=30	=30	=30	=30
4F\	4n 2	.	2g\	.	2d/	.	2bn\	.	(4F\	-tris	2G/	-men	.	2d\	.	2bn\	.	2g\	.	2g\	.	2gg\	.	2bbn\	.
4D\	.	.	.	.	.	.	.	.	4D\)	.	.	.	.	.	.	.	.	.	.	.	.	.	.	.	.
*	*	*	*	*	*	*	*	*	*	*	*	*ij	*	*	*	*	*	*	*	*	*	*	*	*	*
4E\	6	.	4e\	.	2e/	.	2cc\	.	4E\	a-	(4G/	a-	.	2e\	.	2cc\	.	2c/	.	4g\	.	4r	.	2ccc\	.
4A\	.	.	4a\	.	.	.	.	.	4A\	.	4A/)	.	.	.	.	.	.	.	.	4a\	.	4ee\	.	.	.
!	!	!	!	!	!	!	!	!	!	!	!	!	!	!	!	!	!	!	!	!	!	!LO:LB:g=original	!	!	!
=31	=31	=31	=31	=31	=31	=31	=31	=31	=31	=31	=31	=31	=31	=31	=31	=31	=31	=31	=31	=31	=31	=31	=31	=31	=31
4F\	6 5	.	4f\	.	1d/	.	2cc\	.	4F\	.	2A/	.	.	1d\	.	2cc\	.	2f\	.	2a\	.	1dd\	.	2ccc\	.
4D\	.	.	4d\	.	.	.	.	.	4D\	.	.	.	.	.	.	.	.	.	.	.	.	.	.	.	.
!	!	!	!	!	!	!	!LO:SIC:v:s=2bn\	!	!	!	!	!	!	!	!	!LO:SIC:v:s=2bn\	!	!	!	!	!	!	!	!	!
4G\	n	.	4g\	.	.	.	2b-\	.	4G\	.	2G/	.	.	.	.	2b-\	.	2g\	.	2g\	.	.	.	2bbn\	.
4GG/	.	.	4G/	.	.	.	.	.	4GG/	.	.	.	.	.	.	.	.	.	.	.	.	.	.	.	.
!	!	!	!	!	!	!	!	!	!	!	!	!	!	!LO:LB:g=original	!	!	!	!LO:LB:g=original	!	!	!	!	!	!	!
=32	=32	=32	=32	=32	=32	=32	=32	=32	=32	=32	=32	=32	=32	=32	=32	=32	=32	=32	=32	=32	=32	=32	=32	=32	=32
2C/	.	.	2c/	.	2e/	.	2cc\	.	2C/	-men	2G/	-men	.	2e\	-men	2cc\	-men.	2c/	.	2g\	.	2ee\	.	2ccc\	.
*	*	*	*	*	*	*	*	*	*	*	*	*Xij	*	*	*	*	*	*	*	*	*	*	*	*	*
!	!	!	!	!LO:DY:a:t=p	!	!	!	!	!	!	!	!	!	!	!	!	!	!	!	!	!	!	!	!	!
2r	.	.	2c/	p	2r	.	2r	.	2r	.	2r	.	.	2r	.	2r	.	2r	.	2r	.	2r	.	2r	.
!	!	!	!	!	!	!	!	!	!LO:LB:g=original	!	!	!	!	!	!	!	!	!	!	!	!	!	!	!LO:LB:g=original	!
=33	=33	=33	=33	=33	=33	=33	=33	=33	=33	=33	=33	=33	=33	=33	=33	=33	=33	=33	=33	=33	=33	=33	=33	=33	=33
!	!	!	!	!	!	!LO:DY:a:t=po	!LO:TX:a:t=3.	!	!	!	!	!	!	!	!	!	!	!	!	!	!	!	!	!	!
00r	.	.	4Bn/	.	1g/	p	0r	.	00r	.	00r	.	.	00r	.	00r	.	00r	.	00r	.	00r	.	00r	.
.	.	.	4A/	.	.	.	.	.	.	.	.	.	.	.	.	.	.	.	.	.	.	.	.	.	.
.	.	.	2G/	.	.	.	.	.	.	.	.	.	.	.	.	.	.	.	.	.	.	.	.	.	.
!	!	!	!	!	!LO:LB:g=original	!	!	!	!	!	!	!	!	!	!	!	!	!	!	!	!	!	!	!	!
=34	=34	=34	=34	=34	=34	=34	=34	=34	=34	=34	=34	=34	=34	=34	=34	=34	=34	=34	=34	=34	=34	=34	=34	=34	=34
.	.	.	2.c/	.	4e/	.	.	.	.	.	.	.	.	.	.	.	.	.	.	.	.	.	.	.	.
.	.	.	.	.	4c/	.	.	.	.	.	.	.	.	.	.	.	.	.	.	.	.	.	.	.	.
.	.	.	.	.	[y2a/	.	.	.	.	.	.	.	.	.	.	.	.	.	.	.	.	.	.	.	.
.	.	.	4A/	.	.	.	.	.	.	.	.	.	.	.	.	.	.	.	.	.	.	.	.	.	.
=35	=35	=35	=35	=35	=35	=35	=35	=35	=35	=35	=35	=35	=35	=35	=35	=35	=35	=35	=35	=35	=35	=35	=35	=35	=35
!	!	!	!	!	!LO:N:xstem:cue	!	!	!	!	!	!	!	!	!	!	!	!	!	!	!	!	!	!	!	!
.	.	.	2.Bn/	.	4a/]	.	1r	.	.	.	.	.	.	.	.	.	.	.	.	.	.	.	.	.	.
.	.	.	.	.	4d/	.	.	.	.	.	.	.	.	.	.	.	.	.	.	.	.	.	.	.	.
.	.	.	.	.	2g/	.	.	.	.	.	.	.	.	.	.	.	.	.	.	.	.	.	.	.	.
.	.	.	4G/	.	.	.	.	.	.	.	.	.	.	.	.	.	.	.	.	.	.	.	.	.	.
=36	=36	=36	=36	=36	=36	=36	=36	=36	=36	=36	=36	=36	=36	=36	=36	=36	=36	=36	=36	=36	=36	=36	=36	=36	=36
!	!	!	!LO:SIC:v:s=1A/	!	!	!	!	!	!	!	!	!	!	!	!	!	!	!	!	!	!	!	!	!	!
.	.	.	1B-/	.	2g/	.	1cc\	.	.	.	.	.	.	.	.	.	.	.	.	.	.	.	.	.	.
.	.	.	.	.	2f#X/	.	.	.	.	.	.	.	.	.	.	.	.	.	.	.	.	.	.	.	.
!	!	!	!LO:LB:g=original	!	!	!	!	!	!	!	!	!	!	!	!	!	!	!	!	!	!	!	!	!	!
=37	=37	=37	=37	=37	=37	=37	=37	=37	=37	=37	=37	=37	=37	=37	=37	=37	=37	=37	=37	=37	=37	=37	=37	=37	=37
!LO:TX:a:i:t=Violone	!	!LO:DY:b:t=po	!	!	!	!	!	!	!	!	!	!	!	!	!	!	!	!	!	!	!	!	!	!	!
1G/	.	p	1d\	.	2g/	.	4cc\	.	00r	.	00r	.	.	00r	.	00r	.	1r	.	1r	.	00r	.	00r	.
.	.	.	.	.	.	.	4bn\	.	.	.	.	.	.	.	.	.	.	.	.	.	.	.	.	.	.
.	.	.	.	.	2r	.	4a\	.	.	.	.	.	.	.	.	.	.	.	.	.	.	.	.	.	.
.	.	.	.	.	.	.	4g\	.	.	.	.	.	.	.	.	.	.	.	.	.	.	.	.	.	.
=38	=38	=38	=38	=38	=38	=38	=38	=38	=38	=38	=38	=38	=38	=38	=38	=38	=38	=38	=38	=38	=38	=38	=38	=38	=38
1C/	.	.	1e\	.	4g/	.	4r	.	.	.	.	.	.	.	.	.	.	1g/	p	1g/	p	.	.	.	.
.	.	.	.	.	2g/	.	4cc\	.	.	.	.	.	.	.	.	.	.	.	.	.	.	.	.	.	.
.	.	.	.	.	.	.	4ee\	.	.	.	.	.	.	.	.	.	.	.	.	.	.	.	.	.	.
.	.	.	.	.	[4g/	.	4gg\	.	.	.	.	.	.	.	.	.	.	.	.	.	.	.	.	.	.
!	!	!	!	!	!	!	!	!	!	!	!	!	!	!	!	!	!	!	!	!LO:LB:g=original	!	!	!	!	!
=39	=39	=39	=39	=39	=39	=39	=39	=39	=39	=39	=39	=39	=39	=39	=39	=39	=39	=39	=39	=39	=39	=39	=39	=39	=39
1D/	.	.	1f\	.	4g/]	.	4gg\	.	.	.	.	.	.	.	.	.	.	1g/	.	1g/	.	.	.	.	.
.	.	.	.	.	2g/	.	4ff\	.	.	.	.	.	.	.	.	.	.	.	.	.	.	.	.	.	.
.	.	.	.	.	.	.	4ee\	.	.	.	.	.	.	.	.	.	.	.	.	.	.	.	.	.	.
.	.	.	.	.	[4g/	.	4dd\	.	.	.	.	.	.	.	.	.	.	.	.	.	.	.	.	.	.
!LO:LB:g=original	!	!	!	!	!	!	!	!	!	!	!	!	!	!	!	!	!	!	!	!	!	!	!	!	!
=40	=40	=40	=40	=40	=40	=40	=40	=40	=40	=40	=40	=40	=40	=40	=40	=40	=40	=40	=40	=40	=40	=40	=40	=40	=40
1E/	.	.	1g\	.	4g/]	.	4r	.	.	.	.	.	.	.	.	.	.	1g/	.	1g/	.	.	.	.	.
.	.	.	.	.	2g/	.	4cc\	.	.	.	.	.	.	.	.	.	.	.	.	.	.	.	.	.	.
.	.	.	.	.	.	.	4cc\	.	.	.	.	.	.	.	.	.	.	.	.	.	.	.	.	.	.
.	.	.	.	.	[4g/	.	4ee\	.	.	.	.	.	.	.	.	.	.	.	.	.	.	.	.	.	.
=41	=41	=41	=41	=41	=41	=41	=41	=41	=41	=41	=41	=41	=41	=41	=41	=41	=41	=41	=41	=41	=41	=41	=41	=41	=41
1F/	.	.	1d\	.	4g/]	.	4ee\	.	00r	.	00r	.	.	00r	.	00r	.	1g/	.	1g/	.	1r	.	1r	.
.	.	.	.	.	2g/	.	4dd\	.	.	.	.	.	.	.	.	.	.	.	.	.	.	.	.	.	.
.	.	.	.	.	.	.	4cc\	.	.	.	.	.	.	.	.	.	.	.	.	.	.	.	.	.	.
.	.	.	.	.	[4g/	.	4bn\	.	.	.	.	.	.	.	.	.	.	.	.	.	.	.	.	.	.
=42	=42	=42	=42	=42	=42	=42	=42	=42	=42	=42	=42	=42	=42	=42	=42	=42	=42	=42	=42	=42	=42	=42	=42	=42	=42
2E\	.	.	1e\	.	4g/]	.	4r	.	.	.	.	.	.	.	.	.	.	1g/	.	1g/	.	[1gg\	p	1gg\	p
.	.	.	.	.	2g/	.	4cc\	.	.	.	.	.	.	.	.	.	.	.	.	.	.	.	.	.	.
2C/	.	.	.	.	.	.	4ee\	.	.	.	.	.	.	.	.	.	.	.	.	.	.	.	.	.	.
.	.	.	.	.	[4g/	.	4gg\	.	.	.	.	.	.	.	.	.	.	.	.	.	.	.	.	.	.
!	!	!	!	!	!LO:PB:g=original	!	!LO:LB:g=original	!	!	!	!	!	!	!	!	!	!	!	!	!	!	!	!	!	!
=43	=43	=43	=43	=43	=43	=43	=43	=43	=43	=43	=43	=43	=43	=43	=43	=43	=43	=43	=43	=43	=43	=43	=43	=43	=43
!	!	!	!	!	!LO:TX:t=P:problem=brak zakończenia ligatury	!	!	!	!	!	!	!	!	!	!	!	!	!	!	!	!	!	!	!	!
2BBn/	.	.	1f\	.	4g/]	.	4gg\	.	.	.	.	.	.	.	.	.	.	1g/	.	1g/	.	1gg\_	.	1gg\	.
.	.	.	.	.	2g/	.	4ff\	.	.	.	.	.	.	.	.	.	.	.	.	.	.	.	.	.	.
2D/	.	.	.	.	.	.	4ee\	.	.	.	.	.	.	.	.	.	.	.	.	.	.	.	.	.	.
.	.	.	.	.	[4g/	.	4dd\	.	.	.	.	.	.	.	.	.	.	.	.	.	.	.	.	.	.
=44	=44	=44	=44	=44	=44	=44	=44	=44	=44	=44	=44	=44	=44	=44	=44	=44	=44	=44	=44	=44	=44	=44	=44	=44	=44
1E/	.	.	1g\	.	4g/]	.	4dd\	.	.	.	.	.	.	.	.	.	.	1g/	.	1g/	.	1gg\_	.	1gg\	.
.	.	.	.	.	2g/	.	4cc\	.	.	.	.	.	.	.	.	.	.	.	.	.	.	.	.	.	.
.	.	.	.	.	.	.	4cc\	.	.	.	.	.	.	.	.	.	.	.	.	.	.	.	.	.	.
.	.	.	.	.	[4g/	.	4ee\	.	.	.	.	.	.	.	.	.	.	.	.	.	.	.	.	.	.
=45	=45	=45	=45	=45	=45	=45	=45	=45	=45	=45	=45	=45	=45	=45	=45	=45	=45	=45	=45	=45	=45	=45	=45	=45	=45
1F/	.	.	2.d\	.	4g/]	.	4ee\	.	00r	.	00r	.	.	00r	.	00r	.	1g/	.	1g/	.	1gg\_	.	1gg\	.
.	.	.	.	.	2g/	.	4dd\	.	.	.	.	.	.	.	.	.	.	.	.	.	.	.	.	.	.
.	.	.	.	.	.	.	4cc\	.	.	.	.	.	.	.	.	.	.	.	.	.	.	.	.	.	.
.	.	.	4d\	.	4g/	.	4bn\	.	.	.	.	.	.	.	.	.	.	.	.	.	.	.	.	.	.
=46	=46	=46	=46	=46	=46	=46	=46	=46	=46	=46	=46	=46	=46	=46	=46	=46	=46	=46	=46	=46	=46	=46	=46	=46	=46
2E\	.	.	2e\	.	1g/	.	4cc\	.	.	.	.	.	.	.	.	.	.	2g\	.	2g\	.	2gg\]	.	2gg\	.
.	.	.	.	.	.	.	4dd\	.	.	.	.	.	.	.	.	.	.	.	.	.	.	.	.	.	.
2c\	.	.	4c\	.	.	.	4ee\	.	.	.	.	.	.	.	.	.	.	2r	.	2r	.	2r	.	2r	.
.	.	.	8d\L	.	.	.	8dd\L	.	.	.	.	.	.	.	.	.	.	.	.	.	.	.	.	.	.
.	.	.	8e\J	.	.	.	8cc\J	.	.	.	.	.	.	.	.	.	.	.	.	.	.	.	.	.	.
=47	=47	=47	=47	=47	=47	=47	=47	=47	=47	=47	=47	=47	=47	=47	=47	=47	=47	=47	=47	=47	=47	=47	=47	=47	=47
2Bn\	.	.	2d\	.	1g/	.	4dd\	.	.	.	.	.	.	.	.	.	.	00r	.	00r	.	00r	.	00r	.
.	.	.	.	.	.	.	8ee\L	.	.	.	.	.	.	.	.	.	.	.	.	.	.	.	.	.	.
.	.	.	.	.	.	.	8ff\J	.	.	.	.	.	.	.	.	.	.	.	.	.	.	.	.	.	.
2G\	.	.	2Bn/	.	.	.	4gg\	.	.	.	.	.	.	.	.	.	.	.	.	.	.	.	.	.	.
.	.	.	.	.	.	.	4ff\	.	.	.	.	.	.	.	.	.	.	.	.	.	.	.	.	.	.
=48	=48	=48	=48	=48	=48	=48	=48	=48	=48	=48	=48	=48	=48	=48	=48	=48	=48	=48	=48	=48	=48	=48	=48	=48	=48
2C/	.	.	2c\	.	2g/	.	4ee\	.	.	.	.	.	.	.	.	.	.	.	.	.	.	.	.	.	.
.	.	.	.	.	.	.	4dd\	.	.	.	.	.	.	.	.	.	.	.	.	.	.	.	.	.	.
!	!	!	!LO:SIC:v:s=2c\	!	!	!	!	!	!	!	!	!	!	!	!	!	!	!	!	!	!	!	!	!	!
2A\	.	.	2d\	.	2e/	.	4cc\	.	.	.	.	.	.	.	.	.	.	.	.	.	.	.	.	.	.
.	.	.	.	.	.	.	4e/	.	.	.	.	.	.	.	.	.	.	.	.	.	.	.	.	.	.
!	!	!	!LO:LB:g=original	!	!	!	!	!	!	!	!	!	!	!	!	!	!	!	!	!	!	!	!	!	!
=49	=49	=49	=49	=49	=49	=49	=49	=49	=49	=49	=49	=49	=49	=49	=49	=49	=49	=49	=49	=49	=49	=49	=49	=49	=49
2F\	.	.	2A/	.	1d/	.	4d/	.	00r	.	1r	.	.	0r	.	00r	.	.	.	.	.	.	.	.	.
.	.	.	.	.	.	.	4cc\	.	.	.	.	.	.	.	.	.	.	.	.	.	.	.	.	.	.
2G\	.	.	2G/	.	.	.	4d/	.	.	.	.	.	.	.	.	.	.	.	.	.	.	.	.	.	.
.	.	.	.	.	.	.	4bn\	.	.	.	.	.	.	.	.	.	.	.	.	.	.	.	.	.	.
=50	=50	=50	=50	=50	=50	=50	=50	=50	=50	=50	=50	=50	=50	=50	=50	=50	=50	=50	=50	=50	=50	=50	=50	=50	=50
2C/	.	.	2G/	.	2e/	.	2cc\	.	.	.	2r	.	.	.	.	.	.	.	.	.	.	.	.	.	.
*clefC4	*	*	*	*	*	*	*	*	*	*	*	*	*	*	*	*	*	*	*	*	*	*	*	*	*
2c\	.	.	2c/	.	2r	.	2r	.	.	.	2c\	in	.	.	.	.	.	.	.	.	.	.	.	.	.
=51	=51	=51	=51	=51	=51	=51	=51	=51	=51	=51	=51	=51	=51	=51	=51	=51	=51	=51	=51	=51	=51	=51	=51	=51	=51
!	!	!	!	!	!	!	!LO:TX:a:t=5	!	!	!	!	!	!	!	!	!	!	!	!	!	!	!	!	!	!
4Bn\	6	.	4Bn/	.	1g/	f	00r	.	.	.	4Bn\	glo-	.	1g\	In	.	.	00r	.	00r	.	00r	.	00r	.
4A\	.	.	4A/	.	.	.	.	.	.	.	4A\	-ri-	.	.	.	.	.	.	.	.	.	.	.	.	.
2G/	.	.	2G/	.	.	.	.	.	.	.	2G/	-a	.	.	.	.	.	.	.	.	.	.	.	.	.
=52	=52	=52	=52	=52	=52	=52	=52	=52	=52	=52	=52	=52	=52	=52	=52	=52	=52	=52	=52	=52	=52	=52	=52	=52	=52
2.c\	3	.	2.c\	.	4e/	.	.	.	.	.	2.c\	De-	.	4e\	glo-	.	.	.	.	.	.	.	.	.	.
.	2	.	.	.	4d/	.	.	.	.	.	.	.	.	4d\	-ri-	.	.	.	.	.	.	.	.	.	.
.	1_	.	.	.	2c/	.	.	.	.	.	.	.	.	2c\	-a	.	.	.	.	.	.	.	.	.	.
!	!	!	!LO:SIC:v:s=4B-/	!	!	!	!	!	!	!	!	!	!	!	!	!	!	!	!	!	!	!	!	!	!
4B-X\	.	.	4Bn/	.	.	.	.	.	.	.	4B-X\	-i	.	.	.	.	.	.	.	.	.	.	.	.	.
=53	=53	=53	=53	=53	=53	=53	=53	=53	=53	=53	=53	=53	=53	=53	=53	=53	=53	=53	=53	=53	=53	=53	=53	=53	=53
2A\	6	.	2A/	.	4f/	.	.	.	0r	.	2A\	Pa-	.	4f\	De-	0r	.	.	.	.	.	.	.	.	.
.	.	.	.	.	4g/	.	.	.	.	.	.	.	.	4g\	.	.	.	.	.	.	.	.	.	.	.
2f\	.	.	2g\	.	4a/	.	.	.	.	.	2f\	-tris	.	4a\	.	.	.	.	.	.	.	.	.	.	.
.	.	.	.	.	8g/L	.	.	.	.	.	.	.	.	8g\L	-i	.	.	.	.	.	.	.	.	.	.
.	.	.	.	.	8f/J	.	.	.	.	.	.	.	.	8f\J	.	.	.	.	.	.	.	.	.	.	.
!	!	!	!	!	!LO:LB:g=original	!	!	!	!	!	!	!	!	!	!	!	!	!	!	!	!	!	!	!	!
=54	=54	=54	=54	=54	=54	=54	=54	=54	=54	=54	=54	=54	=54	=54	=54	=54	=54	=54	=54	=54	=54	=54	=54	=54	=54
2e\	6	.	2e\	.	4g/	.	.	.	.	.	2e\	a-	.	4g\	Pa-	.	.	.	.	.	.	.	.	.	.
.	.	.	.	.	8a/L	.	.	.	.	.	.	.	.	8a\L	.	.	.	.	.	.	.	.	.	.	.
.	.	.	.	.	8b-/J	.	.	.	.	.	.	.	.	8b-\J	.	.	.	.	.	.	.	.	.	.	.
2c\	8	.	2c\	.	4cc\	.	.	.	.	.	2c\	-men	.	4cc\	.	.	.	.	.	.	.	.	.	.	.
.	7	.	.	.	4b-\	.	.	.	.	.	.	.	.	4b-\	-tris	.	.	.	.	.	.	.	.	.	.
!	!	!	!	!	!	!	!	!	!	!	!LO:LB:g=original	!	!	!	!	!	!	!	!	!	!	!	!	!	!
=55	=55	=55	=55	=55	=55	=55	=55	=55	=55	=55	=55	=55	=55	=55	=55	=55	=55	=55	=55	=55	=55	=55	=55	=55	=55
2.f\	.	.	2.f\	.	4a/	.	1r	.	1r	.	2.f\	a-	.	(4a\	a-	1r	.	0r	.	0r	.	1r	.	1r	.
.	.	.	.	.	4g/	.	.	.	.	.	.	.	.	4g\)	.	.	.	.	.	.	.	.	.	.	.
.	.	.	.	.	2f/	.	.	.	.	.	.	.	.	2f\	-men	.	.	.	.	.	.	.	.	.	.
4e-X\	.	.	4e-X\	.	.	.	.	.	.	.	4e-X\	.	.	.	.	.	.	.	.	.	.	.	.	.	.
*clefF4	*	*	*	*	*	*	*	*	*	*	*	*	*	*	*	*	*	*	*	*	*	*	*	*	*
!	!	!	!	!	!	!	!	!	!	!	!	!	!	!	!	!LO:PB:g=original	!	!	!	!	!	!	!	!	!
=56	=56	=56	=56	=56	=56	=56	=56	=56	=56	=56	=56	=56	=56	=56	=56	=56	=56	=56	=56	=56	=56	=56	=56	=56	=56
4d\	6	.	4d\	.	4f/	.	1b-\	.	(4d\	In	4d\	.	.	(4f\	De-	1b-\	In	.	.	.	.	4ff\	f	1bb-\	.
!	!	!	!LO:SIC:v:s=4e-\	!	!	!	!	!	!	!	!	!	!	!	!	!	!	!	!	!	!	!	!	!	!
4c\	.	.	4e\	.	4e-X/	.	.	.	4c\	.	4e\	.	.	4e-X\)	.	.	.	.	.	.	.	4ee-X\	.	.	.
2B-\	.	.	2f\	.	2d/	.	.	.	2B-\)	.	2f\	-men	.	2d\	-i	.	.	.	.	.	.	2dd\	.	.	.
=57	=57	=57	=57	=57	=57	=57	=57	=57	=57	=57	=57	=57	=57	=57	=57	=57	=57	=57	=57	=57	=57	=57	=57	=57	=57
!	!	!	!	!	!	!	!	!	!	!	!	!	!	!	!	!	!	!	!LO:DY:t=f.	!	!	!	!	!	!
2.F\	3_	.	2.f\	.	2c/	.	4a/	.	2.F\	glo-	0r	.	.	2f\	Pa-	4a\	glo-	1f/	f	1f/	.	1cc\	.	4aa\	.
.	.	.	.	.	.	.	4g/	.	.	.	.	.	.	.	.	4g/	-ri-	.	.	.	.	.	.	4gg\	.
.	.	.	.	.	2c/	.	2f/	.	.	.	.	.	.	2f\	-tris	2f/	-a	.	.	.	.	.	.	2ff\	.
!	!	!	!LO:SIC:v:s=4e-\	!	!	!	!	!	!	!	!	!	!	!	!	!	!	!	!	!	!	!	!	!	!
4E-X\	.	.	4e\	.	.	.	.	.	4E-X\	-ri-	.	.	.	.	.	.	.	.	.	.	.	.	.	.	.
!	!	!	!LO:LB:g=original	!	!	!	!LO:LB:g=original	!	!	!	!	!	!	!	!	!	!	!	!	!	!	!	!	!	!
=58	=58	=58	=58	=58	=58	=58	=58	=58	=58	=58	=58	=58	=58	=58	=58	=58	=58	=58	=58	=58	=58	=58	=58	=58	=58
2D\	6	.	2d\	.	2f/	.	4b-\	.	2D\	-a	.	.	.	1r	.	4b-\	De-	1f/	.	1f/	.	2r	.	1bb-\	.
.	.	.	.	.	.	.	4cc\	.	.	.	.	.	.	.	.	4cc\	-i	.	.	.	.	.	.	.	.
!	!	!	!	!	!	!	!	!	!	!	!	!	!	!	!	!	!	!	!	!	!	!LO:SIC:v:s=2ff\	!	!	!
2B-\	.	.	2B-/	.	2f/	.	4dd\	.	2B-\	De-	.	.	.	.	.	4dd\	Pa-	.	.	.	.	2gg\	.	.	.
.	.	.	.	.	.	.	8cc\L	.	.	.	.	.	.	.	.	8cc\L	-tris	.	.	.	.	.	.	.	.
.	.	.	.	.	.	.	8b-\J	.	.	.	.	.	.	.	.	8b-\J	.	.	.	.	.	.	.	.	.
!	!	!	!	!	!	!	!	!	!	!	!	!	!	!LO:LB:g=original	!	!	!	!LO:LB:g=original	!	!	!	!	!	!	!
=59	=59	=59	=59	=59	=59	=59	=59	=59	=59	=59	=59	=59	=59	=59	=59	=59	=59	=59	=59	=59	=59	=59	=59	=59	=59
1A\	6	.	2A/	.	1f/	.	4cc\	.	1A\	.	1r	.	.	1f\	a-	4cc\	a-	1f/	.	1f/	.	2ff\	.	1ccc\	.
.	.	.	.	.	.	.	8dd\L	.	.	.	.	.	.	.	.	8dd\L	.	.	.	.	.	.	.	.	.
!	!	!	!	!	!	!	!LO:SIC:v:s=8ee-\J	!	!	!	!	!	!	!	!	!	!	!	!	!	!	!	!	!	!
.	.	.	.	.	.	.	8ee\J	.	.	.	.	.	.	.	.	8ee-X\J	.	.	.	.	.	.	.	.	.
.	5-	.	2c/	.	.	.	4ff\	.	.	.	.	.	.	.	.	4ff\	.	.	.	.	.	2ee-X\	.	.	.
!	!	!	!	!	!	!	!LO:SIC:v:s=4ee-\	!	!	!	!	!	!	!	!	!	!	!	!	!	!	!	!	!	!
.	.	.	.	.	.	.	4ee\	.	.	.	.	.	.	.	.	4ee-\	.	.	.	.	.	.	.	.	.
=60	=60	=60	=60	=60	=60	=60	=60	=60	=60	=60	=60	=60	=60	=60	=60	=60	=60	=60	=60	=60	=60	=60	=60	=60	=60
2.B-\	.	.	2B-/	.	2f/	.	4dd\	.	2.B-\	.	1B-\	a-	.	2f\	-men	4dd\	.	2f\	.	2f\	.	4ff\	.	4ddd\	.
!	!	!	!	!	!	!	!	!	!	!	!	!	!	!	!	!	!	!	!	!	!	!LO:SIC:v:s=4ee-\	!	!	!
.	.	.	.	.	.	.	4cc\	.	.	.	.	.	.	.	.	4cc\	.	.	.	.	.	4ee\	.	4ccc\	.
.	.	.	4b-\	.	2b-/	.	2b-\	.	.	.	.	.	.	2b-\	a-	2b-\	-men	2r	.	2r	.	2dd\	.	2bb-\	.
4A\	.	.	4a\	.	.	.	.	.	4A\	-i	.	.	.	.	.	.	.	.	.	.	.	.	.	.	.
!	!	!	!	!	!	!	!	!	!	!	!	!	!	!	!	!	!	!	!	!	!	!LO:LB:g=original	!	!	!
=61	=61	=61	=61	=61	=61	=61	=61	=61	=61	=61	=61	=61	=61	=61	=61	=61	=61	=61	=61	=61	=61	=61	=61	=61	=61
1G\	3	.	1g\	.	1b-\	.	4b-\	.	1G\	Pa-	1B-\	.	.	1b-\	.	4b-\	a-	00r	.	00r	.	2r	.	2r	.
.	.	.	.	.	.	.	8cc\L	.	.	.	.	.	.	.	.	8cc\L	.	.	.	.	.	.	.	.	.
.	.	.	.	.	.	.	8dd\J	.	.	.	.	.	.	.	.	8dd\J	.	.	.	.	.	.	.	.	.
!	!	!	!	!	!	!	!LO:SIC:v:s=4ee-\	!	!	!	!	!	!	!	!	!LO:SIC:v:s=4ee-	!	!	!	!	!	!	!	!	!
.	6	.	.	.	.	.	4ee\	.	.	.	.	.	.	.	.	4ee\	.	.	.	.	.	2ee\	.	4eee-X\	.
.	5	.	.	.	.	.	4dd\	.	.	.	.	.	.	.	.	4dd\	.	.	.	.	.	.	.	4ddd\	.
=62	=62	=62	=62	=62	=62	=62	=62	=62	=62	=62	=62	=62	=62	=62	=62	=62	=62	=62	=62	=62	=62	=62	=62	=62	=62
2.A\	3_	.	2.a\	.	1e/	.	4cc\	.	2.A\	.	4A\	.	.	1a\	.	4cc\	.	.	.	.	.	1ee\	.	4ccc\	.
.	.	.	.	.	.	.	4b-\	.	.	.	4B-\	.	.	.	.	4b-\	.	.	.	.	.	.	.	4bb-\	.
.	.	.	.	.	.	.	2a/	.	.	.	2c\	.	.	.	.	2a\	-men	.	.	.	.	.	.	2aa\	.
4G\	.	.	4g\	.	.	.	.	.	4G\	.	.	.	.	.	.	.	.	.	.	.	.	.	.	.	.
!	!	!	!	!	!	!	!	!	!	!	!	!	!	!	!	!	!	!	!	!	!	!	!	!LO:LB:g=original	!
=63	=63	=63	=63	=63	=63	=63	=63	=63	=63	=63	=63	=63	=63	=63	=63	=63	=63	=63	=63	=63	=63	=63	=63	=63	=63
1F#X\	3	.	1f#X\	.	1a/	.	4a/	.	1F#X\	.	1d\	.	.	1a\	.	4a\	a-	.	.	.	.	1dd\	.	1aa\	.
.	.	.	.	.	.	.	8b-\L	.	.	.	.	.	.	.	.	4b-\	.	.	.	.	.	.	.	.	.
.	.	.	.	.	.	.	8cc\J	.	.	.	.	.	.	.	.	.	.	.	.	.	.	.	.	.	.
.	.	.	.	.	.	.	4dd\	.	.	.	.	.	.	.	.	4cc\	.	.	.	.	.	.	.	.	.
.	6	.	.	.	.	.	4cc\	.	.	.	.	.	.	.	.	8dd\L	.	.	.	.	.	.	.	.	.
.	5	.	.	.	.	.	.	.	.	.	.	.	.	.	.	8cc\J	.	.	.	.	.	.	.	.	.
!	!	!	!	!	!LO:LB:g=original	!	!	!	!	!	!	!	!	!	!	!LO:LB:g=original	!	!	!	!	!	!	!	!	!
=64	=64	=64	=64	=64	=64	=64	=64	=64	=64	=64	=64	=64	=64	=64	=64	=64	=64	=64	=64	=64	=64	=64	=64	=64	=64
1G\	3	.	4e\	.	4g/	.	4b-/	.	2G\	-tris	4d\	.	.	4g\	.	4b-\	.	.	.	.	.	4dd\	.	4bb-\	.
.	2	.	4d\	.	4a/	.	4a/	.	.	.	4c\	.	.	4a\	.	4a\	.	.	.	.	.	4cc\	.	4aa\	.
.	1	.	2B-/	.	2b-/	.	2g/	.	2G\	in	2B-\	.	.	2b-\	.	2g\	-men	.	.	.	.	2b-\	.	2gg\	.
!	!	!	!	!	!	!	!	!	!LO:LB:g=original	!	!	!	!	!	!	!	!	!	!	!	!	!	!	!	!
=65	=65	=65	=65	=65	=65	=65	=65	=65	=65	=65	=65	=65	=65	=65	=65	=65	=65	=65	=65	=65	=65	=65	=65	=65	=65
4F#X\	6	.	2e\	.	4a/	.	2r	.	4F#X\	glo-	2d\	-men	.	4a\	.	2r	.	00r	.	00r	.	2r	.	2aa\	.
4E\	.	.	.	.	4g/	.	.	.	4E\	-ri-	.	.	.	4g\	.	.	.	.	.	.	.	.	.	.	.
2D\	8	.	2A/	.	2f#X/	.	4dd\	.	2D\	-a	2r	.	.	2f#X\	-men	4dd\	De-	.	.	.	.	2dd\	.	4ddd\	.
.	7	.	.	.	.	.	4cc\	.	.	.	.	.	.	.	.	4cc\	-i	.	.	.	.	.	.	4ccc\	.
!LO:LB:g=original	!	!	!LO:PB:g=original	!	!	!	!	!	!	!	!LO:PB:g=original	!	!	!	!	!	!	!	!	!	!	!	!	!	!
=66	=66	=66	=66	=66	=66	=66	=66	=66	=66	=66	=66	=66	=66	=66	=66	=66	=66	=66	=66	=66	=66	=66	=66	=66	=66
4G\	6	.	4g\	.	2d/	.	2b-\	.	4G\	De-	2r	.	.	2d\	De-	2b-\	Pa-	.	.	.	.	2dd\	.	2bb-\	.
4A\	.	.	4a\	.	.	.	.	.	4A\	.	.	.	.	.	.	.	.	.	.	.	.	.	.	.	.
*	*	*	*	*	*2\right	*	*	*	*	*	*	*	*	*	*	*	*	*	*	*	*	*	*	*	*
4B-\	6	.	4b-\	.	2dd\	.	2gg\	.	4B-\	.	2B-\	a-	.	2dd\	-i	2gg\	-tris	.	.	.	.	2dd\	.	[2gg\	.
8A\L	.	.	8a\L	.	.	.	.	.	8A\L	-i	.	.	.	.	.	.	.	.	.	.	.	.	.	.	.
8G\J	.	.	8g\J	.	.	.	.	.	8G\J	.	.	.	.	.	.	.	.	.	.	.	.	.	.	.	.
=67	=67	=67	=67	=67	=67	=67	=67	=67	=67	=67	=67	=67	=67	=67	=67	=67	=67	=67	=67	=67	=67	=67	=67	=67	=67
4A\	7	.	4a\	.	2cc\	.	2gg\	.	4A\	Pa-	2c\	.	.	2cc\	Pa-	2gg\	a-	.	.	.	.	2cc\	.	2gg\]	.
8B-\L	.	.	8b-\L	.	.	.	.	.	8B-\L	.	.	.	.	.	.	.	.	.	.	.	.	.	.	.	.
8c\J	.	.	8cc\J	.	.	.	.	.	8c\J	.	.	.	.	.	.	.	.	.	.	.	.	.	.	.	.
4d\	#	.	4dd\	.	2a/	.	2ff#X\	.	4d\	.	2d\	.	.	2a\	-tris	2ff#X\	.	.	.	.	.	2a/	.	2ff#X\	.
4c\	.	.	4cc\	.	.	.	.	.	4c\	-tris	.	.	.	.	.	.	.	.	.	.	.	.	.	.	.
!	!	!	!	!	!	!	!LO:LB:g=original	!	!	!	!	!	!	!	!	!	!	!	!	!	!	!	!	!	!
=68	=68	=68	=68	=68	=68	=68	=68	=68	=68	=68	=68	=68	=68	=68	=68	=68	=68	=68	=68	=68	=68	=68	=68	=68	=68
4B-\	.	.	4b-\	.	2g/	.	4gg\	.	(4B-\	a-	2d\	-men	.	2.g\	a-	4gg\	-men	.	.	.	.	2b-\	.	2gg\	.
4A\	.	.	4a\	.	.	.	4ffn\	.	4A\)	.	.	.	.	.	.	4ffn\	a-	.	.	.	.	.	.	.	.
2G\	6	.	2g\	.	4g/	.	4een\	.	2G\	-men	2B-\	a-	.	.	.	4ee\	.	.	.	.	.	4een\	.	2r	.
.	5n	.	.	.	4f/	.	4dd\	.	.	.	.	.	.	4f\	.	4dd\	.	.	.	.	.	4dd\	.	.	.
=69	=69	=69	=69	=69	=69	=69	=69	=69	=69	=69	=69	=69	=69	=69	=69	=69	=69	=69	=69	=69	=69	=69	=69	=69	=69
*	*	*	*	*	*	*	*	*	*	*ij	*	*	*	*	*	*	*	*	*	*	*	*	*	*	*
1A\	#	.	1a\	.	4e/	.	1cc#X\	.	1A\	a-	1A\	.	.	4en\	.	1cc#X\	.	2A/	.	2a\	.	2cc#X\	.	1ccc#X\	.
.	.	.	.	.	8f/L	.	.	.	.	.	.	.	.	8f\L	.	.	.	.	.	.	.	.	.	.	.
.	.	.	.	.	8g/J	.	.	.	.	.	.	.	.	8g\J	.	.	.	.	.	.	.	.	.	.	.
!	!	!	!	!	!	!	!	!	!	!	!	!	!	!LO:LB:g=original	!	!	!	!	!	!	!	!	!	!	!
.	.	.	.	.	4a/	.	.	.	.	.	.	.	.	4a\	.	.	.	4A/	.	4a\	.	2ee\	.	.	.
.	.	.	.	.	4g/	.	.	.	.	.	.	.	.	4g\	.	.	.	4A/	.	4a\	.	.	.	.	.
!	!	!	!	!	!	!	!	!	!	!	!	!	!	!	!	!	!	!	!	!LO:LB:g=original	!	!	!	!	!
=70	=70	=70	=70	=70	=70	=70	=70	=70	=70	=70	=70	=70	=70	=70	=70	=70	=70	=70	=70	=70	=70	=70	=70	=70	=70
4F\	6	.	4d\	.	4a/	.	1dd\	.	4F\	.	4d\	.	.	4a\	.	1dd\	.	2A/	.	2a\	.	4aa\	.	1ddd\	.
4En\	.	.	4e\	.	4g/	.	.	.	4E\	.	4e\	.	.	4g\	.	.	.	.	.	.	.	4gg\	.	.	.
2D\	.	.	2f\	.	2f/	.	.	.	2D,<\	-men	2f\	.	.	2f\	.	.	.	2A/	.	2a\	.	2ff\	.	.	.
=71	=71	=71	=71	=71	=71	=71	=71	=71	=71	=71	=71	=71	=71	=71	=71	=71	=71	=71	=71	=71	=71	=71	=71	=71	=71
1A\	#	.	4e\	.	2e/	.	4cc#X\	.	1A\	a-	4e\	.	.	2e\	.	4cc#X\	.	1A/	.	1a/	.	1een\	.	4ccc\	.
!	!	!	!	!	!	!	!LO:SIC:v:s=4bn\	!	!	!	!	!	!	!	!	!	!	!	!	!	!	!	!	!	!
.	.	.	4d\	.	.	.	4b-\	.	.	.	4d\	.	.	.	.	4bn\	.	.	.	.	.	.	.	4bb-\	.
.	.	.	2c#X\	.	4a/	.	2a/	.	.	.	2c#X\	.	.	4a\	.	2a\	-men	.	.	.	.	.	.	2aa\	.
.	.	.	.	.	4g/	.	.	.	.	.	.	.	.	4g\	.	.	.	.	.	.	.	.	.	.	.
!	!	!	!	!	!	!	!	!	!	!	!	!	!	!	!	!	!	!	!	!	!	!LO:LB:g=original	!	!	!
=72	=72	=72	=72	=72	=72	=72	=72	=72	=72	=72	=72	=72	=72	=72	=72	=72	=72	=72	=72	=72	=72	=72	=72	=72	=72
2D\	n	.	2A/	.	2f/	.	4dd\	.	2D,<\	-men	2A\	-men	.	2f\	-men	4dd\	a-	2A/	.	2a\	.	2ff\	.	2ddd\	.
*	*	*	*	*	*	*	*	*	*	*Xij	*	*	*	*	*	*	*	*	*	*	*	*	*	*	*
.	.	.	.	.	.	.	4ee\	.	.	.	.	.	.	.	.	4ee\	.	.	.	.	.	.	.	.	.
2d\	.	.	2f\	.	2a/	.	4ff\	.	2d\	a-	2d\	a-	.	2a\	a-	4ff\	.	2A/	.	2a\	.	2r	.	2r	.
.	.	.	.	.	.	.	8ee\L	.	.	.	.	.	.	.	.	8ee\L	.	.	.	.	.	.	.	.	.
.	.	.	.	.	.	.	8dd\J	.	.	.	.	.	.	.	.	8dd\J	.	.	.	.	.	.	.	.	.
!	!	!	!	!	!LO:LB:g=original	!	!	!	!LO:LB:g=original	!	!	!	!	!	!	!	!	!	!	!	!	!	!	!	!
=73	=73	=73	=73	=73	=73	=73	=73	=73	=73	=73	=73	=73	=73	=73	=73	=73	=73	=73	=73	=73	=73	=73	=73	=73	=73
2c#X\	3	.	1e\	.	1a/	.	4een\	.	1c#X\	.	1en\	.	.	1a\	.	4ee\	.	2A/	.	2a\	.	00r	.	00r	.
.	.	.	.	.	.	.	8ff\L	.	.	.	.	.	.	.	.	8ff\L	.	.	.	.	.	.	.	.	.
.	.	.	.	.	.	.	8gg\J	.	.	.	.	.	.	.	.	8gg\J	.	.	.	.	.	.	.	.	.
!	!	!	!	!	!	!	!	!	!	!	!	!	!	!	!	!LO:LB:g=original	!	!	!	!	!	!	!	!	!
2c#\	6	.	.	.	.	.	4aa\	.	.	.	.	.	.	.	.	4aa\	.	2A/	.	2a\	.	.	.	.	.
.	3	.	.	.	.	.	4gg\	.	.	.	.	.	.	.	.	4gg\	.	.	.	.	.	.	.	.	.
=74	=74	=74	=74	=74	=74	=74	=74	=74	=74	=74	=74	=74	=74	=74	=74	=74	=74	=74	=74	=74	=74	=74	=74	=74	=74
2.d\	3	.	1d\	.	1a/	.	4ff\	.	2.d\	.	1d\	.	.	1a\	.	4ff\	.	2A/	.	2a\	.	.	.	.	.
.	.	.	.	.	.	.	4ee\	.	.	.	.	.	.	.	.	4ee\	.	.	.	.	.	.	.	.	.
.	.	.	.	.	.	.	4dd\	.	.	.	.	.	.	.	.	4dd\	.	2r	.	2r	.	.	.	.	.
4cn\	4# 2	.	.	.	.	.	8ee\L	.	4cn\	.	.	.	.	.	.	8ee\L	.	.	.	.	.	.	.	.	.
.	.	.	.	.	.	.	8ff#X\J	.	.	.	.	.	.	.	.	8ff#X\J	.	.	.	.	.	.	.	.	.
!	!	!	!LO:LLO:LB:g=originalB:g=original	!	!	!	!	!	!	!	!	!	!	!	!	!	!	!	!	!	!	!	!	!	!
=75	=75	=75	=75	=75	=75	=75	=75	=75	=75	=75	=75	=75	=75	=75	=75	=75	=75	=75	=75	=75	=75	=75	=75	=75	=75
4B-\	6_	.	4B-/	.	4dd\	.	2.gg\	.	4B-\	.	4d\	.	.	4dd\	.	2.gg\	.	0r	.	0r	.	.	.	.	.
4A\	.	.	4A/	.	4cc\	.	.	.	4A\	.	4c\	.	.	4cc\	.	.	.	.	.	.	.	.	.	.	.
4G\	.	.	4G/	.	4b-\	.	.	.	4G\	.	4B-\	.	.	4b-\	.	.	.	.	.	.	.	.	.	.	.
8A\L	.	.	4d\	.	8cc\L	.	4ffn\	.	8A\L	.	8c\L	.	.	8cc\L	.	4ffn\	.	.	.	.	.	.	.	.	.
8B-\J	x	.	.	.	8dd\J	.	.	.	8B-\J	.	8d\J	.	.	8dd\J	.	.	.	.	.	.	.	.	.	.	.
!LO:LB:g=original	!	!	!	!	!	!	!	!	!	!	!LO:LB:g=original	!	!	!	!	!	!	!	!	!	!	!	!	!	!
=76	=76	=76	=76	=76	=76	=76	=76	=76	=76	=76	=76	=76	=76	=76	=76	=76	=76	=76	=76	=76	=76	=76	=76	=76	=76
1c\	.	.	2c\	.	2g/	.	4ee\	.	1c\	.	1c\	.	.	2g\	.	4ee\	.	.	.	.	.	.	.	.	.
.	.	.	.	.	.	.	4dd\	.	.	.	.	.	.	.	.	4dd\	.	.	.	.	.	.	.	.	.
.	.	.	2g\	.	2b-/	.	4cc\	.	.	.	.	.	.	2b-X\	.	4cc\	.	.	.	.	.	.	.	.	.
.	.	.	.	.	.	.	8dd\L	.	.	.	.	.	.	.	.	8dd\L	.	.	.	.	.	.	.	.	.
.	.	.	.	.	.	.	8ee\J	.	.	.	.	.	.	.	.	8ee\J	.	.	.	.	.	.	.	.	.
=77	=77	=77	=77	=77	=77	=77	=77	=77	=77	=77	=77	=77	=77	=77	=77	=77	=77	=77	=77	=77	=77	=77	=77	=77	=77
1d\	7	.	2f\	.	4a/	.	1ff\	.	1d\	.	2A/	.	.	2a\	.	1ff\	.	2r	.	2r	.	0r	.	0r	.
.	.	.	.	.	8g/L	.	.	.	.	.	.	.	.	.	.	.	.	.	.	.	.	.	.	.	.
.	.	.	.	.	8a/J	.	.	.	.	.	.	.	.	.	.	.	.	.	.	.	.	.	.	.	.
.	6|	.	2g\	.	4bn/	.	.	.	.	.	2G/	.	.	2bn\	.	.	.	2g\	.	2g\	.	.	.	.	.
.	.	.	.	.	8a/L	.	.	.	.	.	.	.	.	.	.	.	.	.	.	.	.	.	.	.	.
.	.	.	.	.	8b/J	.	.	.	.	.	.	.	.	.	.	.	.	.	.	.	.	.	.	.	.
!	!	!	!	!	!	!	!	!	!	!	!	!	!	!	!	!	!	!LO:LB:g=original	!	!	!	!	!	!	!
=78	=78	=78	=78	=78	=78	=78	=78	=78	=78	=78	=78	=78	=78	=78	=78	=78	=78	=78	=78	=78	=78	=78	=78	=78	=78
2c\	.	.	4a\	.	2cc\	.	4ee\	.	2c\	-men	2G/	-men	.	2.cc\	.	4ee\	.	2c/	.	2g\	.	.	.	.	.
.	.	.	4f\	.	.	.	4dd\	.	.	.	.	.	.	.	.	4dd\	.	.	.	.	.	.	.	.	.
!LO:TX:a:i:t=Tasto.	!	!	!	!	!	!	!	!	!	!	!	!	!	!	!	!	!	!	!	!	!	!	!	!	!
[2C/	.	.	2g\	.	4cc\	.	2cc\	.	2C/	a-	2r	.	.	.	.	2cc\	-men	2r	.	2r	.	.	.	.	.
.	.	.	.	.	4b-\	.	.	.	.	.	.	.	.	4b-\	-men	.	.	.	.	.	.	.	.	.	.
!	!	!	!	!	!	!	!LO:LB:g=original	!	!	!	!	!	!	!	!	!	!	!	!	!	!	!	!	!	!
=79	=79	=79	=79	=79	=79	=79	=79	=79	=79	=79	=79	=79	=79	=79	=79	=79	=79	=79	=79	=79	=79	=79	=79	=79	=79
1C/_	.	.	2f\	.	2a/	.	4ff\	.	1C/	.	00r	.	.	2a\	a-	1a\	a-	1A/	.	1f/	.	1a/	.	1ff\	.
.	.	.	.	.	.	.	4gg\	.	.	.	.	.	.	.	.	.	.	.	.	.	.	.	.	.	.
.	.	.	2a\	.	2f/	.	4aa\	.	.	.	.	.	.	2f\	.	.	.	.	.	.	.	.	.	.	.
.	.	.	.	.	.	.	8gg\L	.	.	.	.	.	.	.	.	.	.	.	.	.	.	.	.	.	.
.	.	.	.	.	.	.	8ff\J	.	.	.	.	.	.	.	.	.	.	.	.	.	.	.	.	.	.
!	!	!	!	!	!	!	!	!	!	!	!	!	!	!LO:LB:g=original	!	!	!	!	!	!	!	!	!	!	!
=80	=80	=80	=80	=80	=80	=80	=80	=80	=80	=80	=80	=80	=80	=80	=80	=80	=80	=80	=80	=80	=80	=80	=80	=80	=80
1C/_	.	.	1g\	.	1e/	.	4gg\	.	1C/	-men	.	.	.	1e\	.	4g\	.	1c/	.	1g/	.	1cc\	.	1gg\	.
.	.	.	.	.	.	.	8aa\L	.	.	.	.	.	.	.	.	8a\L	.	.	.	.	.	.	.	.	.
.	.	.	.	.	.	.	8bb-\J	.	.	.	.	.	.	.	.	8b-\J	.	.	.	.	.	.	.	.	.
.	.	.	.	.	.	.	4ccc\	.	.	.	.	.	.	.	.	4cc\	.	.	.	.	.	.	.	.	.
.	.	.	.	.	.	.	4bb-\	.	.	.	.	.	.	.	.	4b-\	.	.	.	.	.	.	.	.	.
!	!	!	!	!	!	!	!	!	!	!	!	!	!	!	!	!	!	!	!	!	!	!	!	!LO:LB:g=original	!
=81	=81	=81	=81	=81	=81	=81	=81	=81	=81	=81	=81	=81	=81	=81	=81	=81	=81	=81	=81	=81	=81	=81	=81	=81	=81
*	*	*	*	*	*	*	*	*	*	*ij	*	*	*	*	*	*	*	*	*	*	*	*	*	*	*
1C/_	.	.	4cc\	.	4f/	.	4aa\	.	1C/	a-	.	.	.	4f\	.	2a\	.	4f\	.	4a\	.	1ff\	.	4ff\	.
.	.	.	4b-\	.	4g/	.	4gg\	.	.	.	.	.	.	4g\	.	.	.	4c/	.	4g\	.	.	.	4gg\	.
.	.	.	2a\	.	4a/	.	[<2ff\	.	.	.	.	.	.	4a\	.	[2ff\	.	2A/	.	2f\	.	.	.	2aa\	.
.	.	.	.	.	8g/L	.	.	.	.	.	.	.	.	8g\L	.	.	.	.	.	.	.	.	.	.	.
.	.	.	.	.	8f/J	.	.	.	.	.	.	.	.	8f\J	.	.	.	.	.	.	.	.	.	.	.
!	!	!	!	!	!LO:LB:g=original	!	!	!	!	!	!	!	!	!	!	!LO:LB:g=original	!	!	!	!	!	!	!	!	!
=82	=82	=82	=82	=82	=82	=82	=82	=82	=82	=82	=82	=82	=82	=82	=82	=82	=82	=82	=82	=82	=82	=82	=82	=82	=82
!	!	!	!	!	!	!	!	!	!	!	!	!	!	!	!	!LO:TX:t=P:problem=brak zakończenia ligatury	!	!	!	!	!	!	!	!	!
1C/_	.	.	1c\	.	4g/	.	2ff\]	.	1C/,<	-men	.	.	.	4g\	.	2ff\]	.	2c/	.	2g\	.	2ff\	.	2gg\	.
.	.	.	.	.	8a/L	.	.	.	.	.	.	.	.	8a\L	.	.	.	.	.	.	.	.	.	.	.
.	.	.	.	.	8b-/J	.	.	.	.	.	.	.	.	8b-\J	.	.	.	.	.	.	.	.	.	.	.
.	.	.	.	.	2cc\	.	2ee\	.	.	.	.	.	.	2cc\	.	2ee\	.	2r	.	2r	.	2ee\	.	1ccc\	.
!	!	!	!	!	!	!	!	!	!	!	!	!	!	!	!	!	!	!	!	!LO:LB:g=original	!	!	!	!	!
=83	=83	=83	=83	=83	=83	=83	=83	=83	=83	=83	=83	=83	=83	=83	=83	=83	=83	=83	=83	=83	=83	=83	=83	=83-	=83
1C/_	.	.	2d\	.	2cc\	.	4dd\	.	1C/	a-	0r	.	.	2cc\	.	4dd\	.	2r	.	2r	.	2dd\	.	.	.
.	.	.	.	.	.	.	8ee\L	.	.	.	.	.	.	.	.	8ee\L	.	.	.	.	.	.	.	.	.
.	.	.	.	.	.	.	8ff\J	.	.	.	.	.	.	.	.	8ff\J	.	.	.	.	.	.	.	.	.
.	.	.	2e\	.	2b-\	.	4gg\	.	.	.	.	.	.	2b-\	.	4gg\	.	2g\	.	2g\	.	2gg\	.	1bb-\	.
.	.	.	.	.	.	.	4ff\	.	.	.	.	.	.	.	.	4ff\	.	.	.	.	.	.	.	.	.
=84	=84	=84	=84	=84	=84	=84	=84	=84	=84	=84	=84	=84	=84	=84	=84	=84	=84	=84	=84	=84	=84	=84	=84	=84-	=84
!	!	!	!LO:SIC:v:s=1c\	!	!	!	!	!	!	!	!	!	!	!	!	!	!	!	!	!	!	!	!	!	!
1C/_	.	.	1d\	.	2b-/	.	4ee\	.	1C/	-men	.	.	.	2b-\	.	4ee\	.	2g\	.	2g\	.	2gg\	.	.	.
.	.	.	.	.	.	.	4cc\	.	.	.	.	.	.	.	.	4cc\	.	.	.	.	.	.	.	.	.
.	.	.	.	.	4a/	.	2ff\	.	.	.	.	.	.	4a\	.	2ff\	.	2f\	.	2a\	.	[2ff\	.	2aa\	.
.	.	.	.	.	8g/L	.	.	.	.	.	.	.	.	8g\L	.	.	.	.	.	.	.	.	.	.	.
.	.	.	.	.	8f/J	.	.	.	.	.	.	.	.	8f\J	.	.	.	.	.	.	.	.	.	.	.
!	!	!	!LO:LB:g=original	!	!	!	!	!	!LO:LB:g=original	!	!	!	!	!	!	!	!	!	!	!	!	!	!	!	!
=85	=85	=85	=85	=85	=85	=85	=85	=85	=85	=85	=85	=85	=85	=85	=85	=85	=85	=85	=85	=85	=85	=85	=85	=85	=85
!	!	!	!LO:SIC:v:s=1c\	!	!	!	!	!	!	!	!	!	!	!	!	!	!	!	!	!	!	!	!	!	!
1C/]	5 4	.	1d\	.	1g/	.	2ff\	.	1C/	a-	1c\	a-	.	1g\	.	2ff\	.	1c/	.	1g/	.	2ff\]	.	1gg\	.
.	 3	.	.	.	.	.	2ee\	.	.	.	.	.	.	.	.	2ee\	.	.	.	.	.	2ee\	.	.	.
=86	=86	=86	=86	=86	=86	=86	=86	=86	=86	=86	=86	=86	=86	=86	=86	=86	=86	=86	=86	=86	=86	=86	=86	=86	=86
2FF/	.	.	2c\	.	2a/	.	2ff\	.	2F\	-men	2c\	-men	.	2a\	-men	2ff\	-men	2A/	.	2f\	.	2ff\	.	2aa\	.
*	*	*	*	*	*	*	*	*	*	*Xij	*	*	*	*	*	*	*	*	*	*	*	*	*	*	*
!	!	!	!	!LO:DY:a	!	!	!	!	!	!	!	!	!	!	!	!	!	!	!	!	!	!	!	!	!
2r	.	.	2f\	p	2r	.	2r	.	2r	.	2r	.	.	2r	.	2r	.	2r	.	2r	.	2r	.	2r	.
=87	=87	=87	=87	=87	=87	=87	=87	=87	=87	=87	=87	=87	=87	=87	=87	=87	=87	=87	=87	=87	=87	=87	=87	=87	=87
!	!	!	!	!	!	!LO:DY:a:t=po.	!LO:TX:a:t=3.	!	!	!	!LO:TX:t=19:color=grey	!	!	!	!	!	!	!	!	!	!	!	!	!	!
00r	.	.	4e\	.	1cc\	p	0r	.	00r	.	00r	.	.	00r	.	00r	.	00r	.	00r	.	00r	.	00r	.
.	.	.	4d\	.	.	.	.	.	.	.	.	.	.	.	.	.	.	.	.	.	.	.	.	.	.
.	.	.	2c/	.	.	.	.	.	.	.	.	.	.	.	.	.	.	.	.	.	.	.	.	.	.
=88	=88	=88	=88	=88	=88	=88	=88	=88	=88	=88	=88	=88	=88	=88	=88	=88	=88	=88	=88	=88	=88	=88	=88	=88	=88
.	.	.	2.f\	.	4a/	.	.	.	.	.	.	.	.	.	.	.	.	.	.	.	.	.	.	.	.
.	.	.	.	.	4f/	.	.	.	.	.	.	.	.	.	.	.	.	.	.	.	.	.	.	.	.
.	.	.	.	.	[y2dd\	.	.	.	.	.	.	.	.	.	.	.	.	.	.	.	.	.	.	.	.
.	.	.	4d\	.	.	.	.	.	.	.	.	.	.	.	.	.	.	.	.	.	.	.	.	.	.
=89	=89	=89	=89	=89	=89	=89	=89	=89	=89	=89	=89	=89	=89	=89	=89	=89	=89	=89	=89	=89	=89	=89	=89	=89	=89
!	!	!	!	!	!LO:N:xstem:cue	!	!	!	!	!	!	!	!	!	!	!	!	!	!	!	!	!	!	!	!
.	.	.	2.e\	.	4dd\]	.	1r	.	.	.	.	.	.	.	.	.	.	.	.	.	.	.	.	.	.
.	.	.	.	.	4g/	.	.	.	.	.	.	.	.	.	.	.	.	.	.	.	.	.	.	.	.
.	.	.	.	.	2cc\	.	.	.	.	.	.	.	.	.	.	.	.	.	.	.	.	.	.	.	.
.	.	.	4c/	.	.	.	.	.	.	.	.	.	.	.	.	.	.	.	.	.	.	.	.	.	.
=90	=90	=90	=90	=90	=90	=90	=90	=90	=90	=90	=90	=90	=90	=90	=90	=90	=90	=90	=90	=90	=90	=90	=90	=90	=90
!	!	!	!	!	!	!	!	!LO:DY:a:t=p&colon;	!	!	!	!	!	!	!	!	!	!	!	!	!	!	!	!	!
.	.	.	1d\	.	2cc\	.	1ff\	p	.	.	.	.	.	.	.	.	.	.	.	.	.	.	.	.	.
.	.	.	.	.	2bn\	.	.	.	.	.	.	.	.	.	.	.	.	.	.	.	.	.	.	.	.
!LO:PB:g=original	!	!	!	!	!	!	!	!	!	!	!	!	!	!	!	!	!	!	!	!	!	!	!	!	!
=91	=91	=91	=91	=91	=91	=91	=91	=91	=91	=91	=91	=91	=91	=91	=91	=91	=91	=91	=91	=91	=91	=91	=91	=91	=91
!LO:TX:a:i:t=Violone	!	!LO:DY:b:t=po	!	!	!	!	!	!	!	!	!	!	!	!	!	!	!	!	!	!	!	!	!	!	!
1C/	.	p	1G/	.	2cc\	.	4ff\	.	00r	.	00r	.	.	00r	.	00r	.	1r	.	1r	.	1r	.	1r	.
.	.	.	.	.	.	.	(4ee\	.	.	.	.	.	.	.	.	.	.	.	.	.	.	.	.	.	.
.	.	.	.	.	2c/	.	4dd\	.	.	.	.	.	.	.	.	.	.	.	.	.	.	.	.	.	.
.	.	.	.	.	.	.	4cc\)	.	.	.	.	.	.	.	.	.	.	.	.	.	.	.	.	.	.
!	!	!	!	!	!LO:LB:g=original	!	!LO:LB:g=original	!	!	!	!	!	!	!	!	!	!	!	!	!	!	!	!	!	!
=92	=92	=92	=92	=92	=92	=92	=92	=92	=92	=92	=92	=92	=92	=92	=92	=92	=92	=92	=92	=92	=92	=92	=92	=92	=92
!	!	!	!	!	!	!	!	!	!	!	!	!	!	!	!	!	!	!	!LO:DY:a	!	!LO:DY:t=po.	!	!	!	!
1F\	.	.	1A/	.	4c/	.	4r	.	.	.	.	.	.	.	.	.	.	1f/	p	1a/	p	[1cc\	p	[<1ccc\	p
.	.	.	.	.	2c/	.	4ff\	.	.	.	.	.	.	.	.	.	.	.	.	.	.	.	.	.	.
.	.	.	.	.	.	.	4aa\	.	.	.	.	.	.	.	.	.	.	.	.	.	.	.	.	.	.
.	.	.	.	.	4c/	.	4ccc\	.	.	.	.	.	.	.	.	.	.	.	.	.	.	.	.	.	.
=93	=93	=93	=93	=93	=93	=93	=93	=93	=93	=93	=93	=93	=93	=93	=93	=93	=93	=93	=93	=93	=93	=93	=93	=93	=93
1G\	.	.	1B-/	.	4c/	.	4ccc\	.	.	.	.	.	.	.	.	.	.	1c/	.	1g/	.	1cc\]	.	1ccc\_<	.
.	.	.	.	.	2c/	.	4bb-\	.	.	.	.	.	.	.	.	.	.	.	.	.	.	.	.	.	.
.	.	.	.	.	.	.	4aa\	.	.	.	.	.	.	.	.	.	.	.	.	.	.	.	.	.	.
.	.	.	.	.	[4c/	.	4gg\	.	.	.	.	.	.	.	.	.	.	.	.	.	.	.	.	.	.
!	!	!	!	!	!	!	!	!	!	!	!	!	!	!	!	!	!	!LO:LB:g=original	!	!	!	!LO:LB:g=original	!	!	!
=94	=94	=94	=94	=94	=94	=94	=94	=94	=94	=94	=94	=94	=94	=94	=94	=94	=94	=94	=94	=94	=94	=94	=94	=94	=94
1A\	.	.	1c\	.	4c/]	.	4gg\	<	.	.	.	.	.	.	.	.	.	1A/	.	1f/	.	1cc\	.	1ccc\_<	.
.	.	.	.	.	2c/	.	4ff\	.	.	.	.	.	.	.	.	.	.	.	.	.	.	.	.	.	.
.	.	.	.	.	.	.	4ff\	.	.	.	.	.	.	.	.	.	.	.	.	.	.	.	.	.	.
.	.	.	.	.	[4c/	.	4aa\	.	.	.	.	.	.	.	.	.	.	.	.	.	.	.	.	.	.
=95	=95	=95	=95	=95	=95	=95	=95	=95	=95	=95	=95	=95	=95	=95	=95	=95	=95	=95	=95	=95	=95	=95	=95	=95	=95
1B-\	.	.	1G/	.	4c/]	.	4aa\	.	00r	.	00r	.	.	00r	.	00r	.	1c/	.	1g/	.	1cc\	.	1ccc\_<	.
.	.	.	.	.	2c/	.	4gg\	.	.	.	.	.	.	.	.	.	.	.	.	.	.	.	.	.	.
.	.	.	.	.	.	.	4ff\	.	.	.	.	.	.	.	.	.	.	.	.	.	.	.	.	.	.
.	.	.	.	.	[4c/	.	4ee\	.	.	.	.	.	.	.	.	.	.	.	.	.	.	.	.	.	.
=96	=96	=96	=96	=96	=96	=96	=96	=96	=96	=96	=96	=96	=96	=96	=96	=96	=96	=96	=96	=96	=96	=96	=96	=96	=96
2A\	.	.	1A/	.	4c/]	.	4r	.	.	.	.	.	.	.	.	.	.	1f/	.	1a/	.	1cc\	.	1ccc\_<	.
.	.	.	.	.	2c/	.	4ff\	ff	.	.	.	.	.	.	.	.	.	.	.	.	.	.	.	.	.
2F\	.	.	.	.	.	.	4aa\	.	.	.	.	.	.	.	.	.	.	.	.	.	.	.	.	.	.
.	.	.	.	.	[4c/	.	4ccc\	.	.	.	.	.	.	.	.	.	.	.	.	.	.	.	.	.	.
=97	=97	=97	=97	=97	=97	=97	=97	=97	=97	=97	=97	=97	=97	=97	=97	=97	=97	=97	=97	=97	=97	=97	=97	=97	=97
2E\	.	.	1B-/	.	4c/]	.	4ccc\	.	.	.	.	.	.	.	.	.	.	1c/	.	1g/	.	1cc\	.	1ccc\_<	.
.	.	.	.	.	2c/	.	4bb-\	.	.	.	.	.	.	.	.	.	.	.	.	.	.	.	.	.	.
2G\	.	.	.	.	.	.	4aa\	.	.	.	.	.	.	.	.	.	.	.	.	.	.	.	.	.	.
.	.	.	.	.	[4c/	.	4gg\	.	.	.	.	.	.	.	.	.	.	.	.	.	.	.	.	.	.
!	!	!	!LO:LB:g=original	!	!	!	!	!	!	!	!	!	!	!	!	!	!	!	!	!	!	!	!	!	!
=98	=98	=98	=98	=98	=98	=98	=98	=98	=98	=98	=98	=98	=98	=98	=98	=98	=98	=98	=98	=98	=98	=98	=98	=98	=98
1A\	.	.	1c\	.	4c/]	.	4gg\	.	.	.	.	.	.	.	.	.	.	1A/	.	1f/	.	1cc\	.	1ccc\_<	.
.	.	.	.	.	2c/	.	4ff\	.	.	.	.	.	.	.	.	.	.	.	.	.	.	.	.	.	.
.	.	.	.	.	.	.	4ff\	.	.	.	.	.	.	.	.	.	.	.	.	.	.	.	.	.	.
.	.	.	.	.	[4c/	.	4aa\	.	.	.	.	.	.	.	.	.	.	.	.	.	.	.	.	.	.
=99	=99	=99	=99	=99	=99	=99	=99	=99	=99	=99	=99	=99	=99	=99	=99	=99	=99	=99	=99	=99	=99	=99	=99	=99	=99
!	!	!	!	!	!	!	!	!	!	!	!	!	!	!	!	!	!	!LO:N:vis=2	!	!	!	!	!	!	!
1B-\	.	.	1G/	.	4c/]	.	4aa\	.	00r	.	00r	.	.	00r	.	00r	.	1c/	.	1g/	.	1cc\	.	1ccc\]	.
.	.	.	.	.	2c/	.	4gg\	.	.	.	.	.	.	.	.	.	.	.	.	.	.	.	.	.	.
.	.	.	.	.	.	.	4ff\	.	.	.	.	.	.	.	.	.	.	.	.	.	.	.	.	.	.
.	.	.	.	.	[4c/	.	4ee\	.	.	.	.	.	.	.	.	.	.	.	.	.	.	.	.	.	.
=100	=100	=100	=100	=100	=100	=100	=100	=100	=100	=100	=100	=100	=100	=100	=100	=100	=100	=100	=100	=100	=100	=100	=100	=100	=100
2A\	.	.	2A/	.	4c/]	.	4ff\	.	.	.	.	.	.	.	.	.	.	2A/	.	2f\	.	2cc\	.	2ccc\	.
.	.	.	.	.	2c/	.	4gg\	.	.	.	.	.	.	.	.	.	.	.	.	.	.	.	.	.	.
2F\	.	.	4f\	.	.	.	4aa\	.	.	.	.	.	.	.	.	.	.	2r	.	2r	.	2r	.	2r	.
.	.	.	8g\L	.	4c/	.	8gg\L	.	.	.	.	.	.	.	.	.	.	.	.	.	.	.	.	.	.
.	.	.	8a\J	.	.	.	8ff\J	.	.	.	.	.	.	.	.	.	.	.	.	.	.	.	.	.	.
!	!	!	!	!	!LO:LB:g=original	!	!	!	!	!	!	!	!	!	!	!	!	!	!	!	!	!	!	!	!
=101	=101	=101	=101	=101	=101	=101	=101	=101	=101	=101	=101	=101	=101	=101	=101	=101	=101	=101	=101	=101	=101	=101	=101	=101	=101
2E\	.	.	1g\	.	1c/	.	4gg\	.	.	.	.	.	.	.	.	.	.	0r	.	0r	.	0r	.	0r	.
.	.	.	.	.	.	.	8aa\L	.	.	.	.	.	.	.	.	.	.	.	.	.	.	.	.	.	.
.	.	.	.	.	.	.	8bb-\J	.	.	.	.	.	.	.	.	.	.	.	.	.	.	.	.	.	.
2C/	.	.	.	.	.	.	4ccc\	.	.	.	.	.	.	.	.	.	.	.	.	.	.	.	.	.	.
.	.	.	.	.	.	.	4bb-\	.	.	.	.	.	.	.	.	.	.	.	.	.	.	.	.	.	.
!	!	!	!	!	!	!	!LO:LB:g=original	!	!	!	!	!	!	!	!	!	!	!	!	!	!	!	!	!	!
=102	=102	=102	=102	=102	=102	=102	=102	=102	=102	=102	=102	=102	=102	=102	=102	=102	=102	=102	=102	=102	=102	=102	=102	=102	=102
2F\	.	.	2c\	.	2cc\	.	4aa\	.	.	.	.	.	.	.	.	.	.	.	.	.	.	.	.	.	.
.	.	.	.	.	.	.	4gg\	.	.	.	.	.	.	.	.	.	.	.	.	.	.	.	.	.	.
2d\	.	.	[2d\	.	2a/	.	4ff\	.	.	.	.	.	.	.	.	.	.	.	.	.	.	.	.	.	.
.	.	.	.	.	.	.	4a/	.	.	.	.	.	.	.	.	.	.	.	.	.	.	.	.	.	.
=103	=103	=103	=103	=103	=103	=103	=103	=103	=103	=103	=103	=103	=103	=103	=103	=103	=103	=103	=103	=103	=103	=103	=103	=103	=103
2B-\	.	.	2d\]	.	1g/	.	4g/	.	0r	.	0r	.	.	0r	.	0r	.	1r	.	1r	.	1r	.	1r	.
.	.	.	.	.	.	.	4ff\	.	.	.	.	.	.	.	.	.	.	.	.	.	.	.	.	.	.
2c\	.	.	2c\	.	.	.	4g/	.	.	.	.	.	.	.	.	.	.	.	.	.	.	.	.	.	.
.	.	.	.	.	.	.	4ee\	.	.	.	.	.	.	.	.	.	.	.	.	.	.	.	.	.	.
!LO:LB:g=original	!	!	!	!	!	!	!	!	!	!	!	!	!	!	!	!	!	!	!	!	!	!	!	!LO:LB:g=original	!
=104	=104	=104	=104	=104	=104	=104	=104	=104	=104	=104	=104	=104	=104	=104	=104	=104	=104	=104	=104	=104	=104	=104	=104	=104	=104
!	!	!	!	!	!	!	!	!	!	!	!	!	!	!	!	!	!	!	!LO:DY:a	!	!LO:DY:a:t=po	!	!	!	!
2F\	.	.	2c\	.	2a/	.	4ff\	.	.	.	.	.	.	.	.	.	.	2f\	p	2f\	p	2r	.	2r	.
.	.	.	.	.	.	.	2ff\	.	.	.	.	.	.	.	.	.	.	.	.	.	.	.	.	.	.
2r	.	.	2r	.	2r	.	.	.	.	.	.	.	.	.	.	.	.	4f\	.	4f\	.	4ff\	p	4ff\	.
.	.	.	.	.	.	.	4ff\	.	.	.	.	.	.	.	.	.	.	4f\	.	4f\	.	4ff\	.	4ff\	.
=105	=105	=105	=105	=105	=105	=105	=105	=105	=105	=105	=105	=105	=105	=105	=105	=105	=105	=105	=105	=105	=105	=105	=105	=105	=105
1r	.	.	1r	.	1r	.	4ff\	.	1r	.	1r	.	.	1r	.	1r	.	2f\	.	2f\	.	2ff\	.	1ff\	.
.	.	.	.	.	.	.	2ff\	.	.	.	.	.	.	.	.	.	.	.	.	.	.	.	.	.	.
.	.	.	.	.	.	.	.	.	.	.	.	.	.	.	.	.	.	2f\	.	2f\	.	2ff\	.	.	.
.	.	.	.	.	.	.	4ff\	.	.	.	.	.	.	.	.	.	.	.	.	.	.	.	.	.	.
=106	=106	=106	=106	=106	=106	=106	=106	=106	=106	=106	=106	=106	=106	=106	=106	=106	=106	=106	=106	=106	=106	=106	=106	=106	=106
!LO:TX:b:i:t=Pleno.	!	!	!	!	!	!	!	!LO:DY:a	!	!	!	!	!	!	!	!	!	!	!LO:DY:a	!	!LO:DY:a	!	!LO:DY:a:t=f	!	!
4F\	8 3	.	4f\	.	4a/	f	8ff\L	ff	(4F\	In	1A\	in	.	1f\	in	4a\	a-	2f\	f	2f\	f	1a/	f	1ff\	.
.	.	.	.	.	.	.	8ff\	.	.	.	.	.	.	.	.	.	.	.	.	.	.	.	.	.	.
4G\	3	.	4g\	.	4b-/	.	8ff\	.	4G\)	.	.	.	.	.	.	4b-\	.	.	.	.	.	.	.	.	.
.	.	.	.	.	.	.	8ff\J	.	.	.	.	.	.	.	.	.	.	.	.	.	.	.	.	.	.
*	*	*	*	*	*	*	*tremolo	*	*	*	*	*	*	*	*	*	*	*	*	*	*	*	*	*	*
4A\	3_	.	4a\	.	4cc\	.	8ff\L	.	4A\	glo-	.	.	.	.	.	4cc\	.	4f\	.	4f\	.	.	.	.	.
.	.	.	.	.	.	.	8ff\	.	.	.	.	.	.	.	.	.	.	.	.	.	.	.	.	.	.
8G\L	.	.	8g\L	.	8b-/L	.	8ff\	.	8G\L	.	.	.	.	.	.	8b-\L	.	4f\	.	4f\	.	.	.	.	.
8F\J	.	.	8f\J	.	8a/J	.	8ff\J	.	8F\J	.	.	.	.	.	.	8a\J	.	.	.	.	.	.	.	.	.
=107	=107	=107	=107	=107	=107	=107	=107	=107	=107	=107	=107	=107	=107	=107	=107	=107	=107	=107	=107	=107	=107	=107	=107	=107	=107
4G\	7 3	.	4g\	.	4b-\	.	8ff\L	.	4G\	.	2B-\	glo-	.	2f\	glo-	4b-\	.	1f/	.	1f/	.	1b-\	.	1ff\	.
.	.	.	.	.	.	.	8ff\	.	.	.	.	.	.	.	.	.	.	.	.	.	.	.	.	.	.
4A\	3	.	4a\	.	4cc\	.	8ff\	.	4A\	.	.	.	.	.	.	4cc\	.	.	.	.	.	.	.	.	.
.	.	.	.	.	.	.	8ff\J	.	.	.	.	.	.	.	.	.	.	.	.	.	.	.	.	.	.
4B-X\	3_	.	4b-\	.	4dd\	.	8ff\L	.	4B-\	.	4B-\	-ri-	.	4f\	-ri-	4dd\	.	.	.	.	.	.	.	.	.
.	.	.	.	.	.	.	8ff\	.	.	.	.	.	.	.	.	.	.	.	.	.	.	.	.	.	.
8A\L	.	.	8a\L	.	8cc\L	.	8ff\	.	8A\L	-ri-	4B-\	-a	.	4f\	-a	8cc\L	.	.	.	.	.	.	.	.	.
8G\J	.	.	8g\J	.	8b-\J	.	8ff\J	.	8G\J	-a	.	.	.	.	.	8b-\J	.	.	.	.	.	.	.	.	.
!	!	!	!LO:LB:g=original	!	!	!	!	!	!	!	!	!	!	!LO:LB:g=original	!	!LO:LB:g=original	!	!	!	!	!	!	!	!	!
=108	=108	=108	=108	=108	=108	=108	=108	=108	=108	=108	=108	=108	=108	=108	=108	=108	=108	=108	=108	=108	=108	=108	=108	=108	=108
4A\	6 3	.	4a\	.	4cc\	.	8ff\L	.	4A\	De-	2c\	De-	.	2f\	De-	4cc\	.	1f/	.	1f/	.	1cc\	.	1ff\	.
.	.	.	.	.	.	.	8ff\	.	.	.	.	.	.	.	.	.	.	.	.	.	.	.	.	.	.
4B-\	3_	.	4b-\	.	4dd\	.	8ff\	.	4B-\	.	.	.	.	.	.	4dd\	.	.	.	.	.	.	.	.	.
.	.	.	.	.	.	.	8ff\J	.	.	.	.	.	.	.	.	.	.	.	.	.	.	.	.	.	.
4c\	.	.	4cc\	.	4ee-X\	.	8ff\L	.	4c\	.	2A\	-i	.	2f\	-i	4ee-X\	.	.	.	.	.	.	.	.	.
.	.	.	.	.	.	.	8ff\	.	.	.	.	.	.	.	.	.	.	.	.	.	.	.	.	.	.
8B-\L	.	.	8b-\L	.	8dd\L	.	8ff\	.	8B-\L	-i	.	.	.	.	.	8dd\L	.	.	.	.	.	.	.	.	.
8A\J	.	.	8a\J	.	8cc\J	.	8ff\J	.	8A\J	.	.	.	.	.	.	8cc\J	.	.	.	.	.	.	.	.	.
!	!	!	!	!	!	!	!	!	!	!	!LO:LB:g=original	!	!	!	!	!	!	!LO:LB:g=original	!	!	!	!	!	!	!
=109	=109	=109	=109	=109	=109	=109	=109	=109	=109	=109	=109	=109	=109	=109	=109	=109	=109	=109	=109	=109	=109	=109	=109	=109	=109
*	*	*	*	*	*tremolo	*	*	*	*	*	*	*	*	*	*	*	*	*	*	*	*	*	*	*	*
2B-\	x	.	2b-\	.	8dd\L	.	8ff\L	.	2B-\	Pa-	2B-\	Pa-	.	2f\	Pa-	2dd\	.	2f\	.	2f\	.	2dd\	.	(2ff\	.
.	.	.	.	.	8dd\	.	8ff\	.	.	.	.	.	.	.	.	.	.	.	.	.	.	.	.	.	.
.	.	.	.	.	8dd\	.	8ff\	.	.	.	.	.	.	.	.	.	.	.	.	.	.	.	.	.	.
.	.	.	.	.	8dd\J	.	8ff\J	.	.	.	.	.	.	.	.	.	.	.	.	.	.	.	.	.	.
2A\	6|	.	2a\	.	8cc\L	.	8ff#X\L	.	2A\	-tris	2c\	-tris	.	2f#X\	-tris	2cc\	.	2r	.	2r	.	2cc\	.	2ff#X\)	.
.	.	.	.	.	8cc\	.	8ff#X\	.	.	.	.	.	.	.	.	.	.	.	.	.	.	.	.	.	.
.	.	.	.	.	8cc\	.	8ff#X\	.	.	.	.	.	.	.	.	.	.	.	.	.	.	.	.	.	.
.	.	.	.	.	8cc\J	.	8ff#X\J	.	.	.	.	.	.	.	.	.	.	.	.	.	.	.	.	.	.
*	*	*	*	*	*Xtremolo	*	*	*	*	*	*	*	*	*	*	*	*	*	*	*	*	*	*	*	*
!	!	!	!	!	!	!	!	!	!	!	!	!	!	!	!	!	!	!	!	!	!	!LO:LB:g=original	!	!	!
=110	=110	=110	=110	=110	=110	=110	=110	=110	=110	=110	=110	=110	=110	=110	=110	=110	=110	=110	=110	=110	=110	=110	=110	=110	=110
4G\	8_ 3	.	4g\	.	4bn\	.	8gg\L	.	4G\	a-	2d\	a-	.	1g\	a-	4bn\	.	1g/	.	1g/	.	1b\	.	1gg\	.
.	.	.	.	.	.	.	8gg\	.	.	.	.	.	.	.	.	.	.	.	.	.	.	.	.	.	.
4A\	.	.	4a\	.	4cc\	.	8gg\	.	4A\	.	.	.	.	.	.	4cc\	.	.	.	.	.	.	.	.	.
.	.	.	.	.	.	.	8gg\J	.	.	.	.	.	.	.	.	.	.	.	.	.	.	.	.	.	.
!	!	!	!	!	!LO:LB:g=original	!	!	!	!	!	!	!	!	!	!	!	!	!	!	!	!	!	!	!	!
4Bn\	.	.	4bn\	.	4dd\	.	8gg\L	.	4Bn\	.	2Bn\	.	.	.	.	4dd\	.	.	.	.	.	.	.	.	.
.	.	.	.	.	.	.	8gg\	.	.	.	.	.	.	.	.	.	.	.	.	.	.	.	.	.	.
8A\L	.	.	8a\L	.	8cc\L	.	8gg\	.	8A\L	.	.	.	.	.	.	8cc\L	.	.	.	.	.	.	.	.	.
8G\J	.	.	8g\J	.	8b\J	.	8gg\J	.	8G\J	.	.	.	.	.	.	8b\J	.	.	.	.	.	.	.	.	.
!	!	!	!	!	!	!	!	!	!LO:LB:g=original	!	!	!	!	!	!	!	!	!	!	!	!	!	!	!	!
=111	=111	=111	=111	=111	=111	=111	=111	=111	=111	=111	=111	=111	=111	=111	=111	=111	=111	=111	=111	=111	=111	=111	=111	=111	=111
4A\	7_ 3	.	4a\	.	4cc\	.	8gg\L	.	4A\	.	1c\	.	.	1g\	.	4cc\	.	1g/	.	2g\	.	1cc\	.	1gg\	.
.	.	.	.	.	.	.	8gg\	.	.	.	.	.	.	.	.	.	.	.	.	.	.	.	.	.	.
4B-X\	_ 3	.	4b-\	.	4dd\	.	8gg\	.	4B-\	.	.	.	.	.	.	4dd\	.	.	.	.	.	.	.	.	.
.	.	.	.	.	.	.	8gg\J	.	.	.	.	.	.	.	.	.	.	.	.	.	.	.	.	.	.
4c\	_ 3_	.	4cc\	.	4een\	.	8gg\L	.	4c\	.	.	.	.	.	.	4ee\	.	.	.	4g\	.	.	.	.	.
.	.	.	.	.	.	.	8gg\	.	.	.	.	.	.	.	.	.	.	.	.	.	.	.	.	.	.
8B-\L	x _	.	8b-\L	.	8dd\L	.	8gg\	.	8B-\L	.	.	.	.	.	.	8dd\L	.	.	.	4g\	.	.	.	.	.
8A\J	.	.	8a\J	.	8cc\J	.	8gg\J	.	8A\J	.	.	.	.	.	.	8cc\J	.	.	.	.	.	.	.	.	.
=112	=112	=112	=112	=112	=112	=112	=112	=112	=112	=112	=112	=112	=112	=112	=112	=112	=112	=112	=112	=112	=112	=112	=112	=112	=112
4B-\	6 3	.	4b-\	.	4dd\	.	8gg\L	.	4B-\	.	2d\	.	.	1g\	.	4dd\	.	2g\	.	2g\	.	1dd\	.	1gg\	.
.	.	.	.	.	.	.	8gg\	.	.	.	.	.	.	.	.	.	.	.	.	.	.	.	.	.	.
4c\	3	.	4cc\	.	4ee\	.	8gg\	.	4c\	.	.	.	.	.	.	4ee\	.	.	.	.	.	.	.	.	.
.	.	.	.	.	.	.	8gg\J	.	.	.	.	.	.	.	.	.	.	.	.	.	.	.	.	.	.
4d\	.	.	4dd\	.	4ff\	.	8gg\L	.	4d\	.	2Bn\	.	.	.	.	4ff\	.	4g\	.	2g\	.	.	.	.	.
.	.	.	.	.	.	.	8gg\	.	.	.	.	.	.	.	.	.	.	.	.	.	.	.	.	.	.
8c\L	.	.	8cc\L	.	8ee\L	.	8gg\	.	8c\L	.	.	.	.	.	.	8ee\L	.	4g\	.	.	.	.	.	.	.
!LO:SIC:v:s=8Bn\J	!	!	!LO:SIC:v:s=8bn\J	!	!	!	!	!	!LO:SIC:v:s=8Bn\J	!	!	!	!	!	!	!	!	!	!	!	!	!	!	!	!
8B-\J	.	.	8b-\J	.	8dd\J	.	8gg\J	.	8B-\J	.	.	.	.	.	.	8dd\J	.	.	.	.	.	.	.	.	.
!	!	!	!	!	!	!	!LO:LB:g=original	!	!	!	!	!	!	!	!	!	!	!	!	!	!	!	!	!	!
=113	=113	=113	=113	=113	=113	=113	=113	=113	=113	=113	=113	=113	=113	=113	=113	=113	=113	=113	=113	=113	=113	=113	=113	=113	=113
*	*	*	*	*	*tremolo	*	*	*	*	*	*	*	*	*	*	*	*	*	*	*	*	*	*	*	*
!	!	!	!	!	!	!	!	!	!	!	!	!	!	!	!	!	!	!	!	!	!	!LO:N:vis=1	!	!	!
2c\	.	.	8cc\L	.	8ee\L	.	8gg\L	.	2c\	.	2c\	-men	.	2g\	-men	2ee\	-men	2c/	.	2g\	.	2ee\	.	2gg\	.
.	.	.	8cc\	.	8ee\	.	8gg\	.	.	.	.	.	.	.	.	.	.	.	.	.	.	.	.	.	.
.	.	.	8cc\	.	8ee\	.	8gg\	.	.	.	.	.	.	.	.	.	.	.	.	.	.	.	.	.	.
.	.	.	8cc\J	.	8ee\J	.	8gg\J	.	.	.	.	.	.	.	.	.	.	.	.	.	.	.	.	.	.
*	*	*	*tremolo	*	*Xtremolo	*	*Xtremolo	*	*	*	*	*ij	*	*	*	*	*	*	*	*	*	*	*	*	*
2E\	6 5-	.	8e\L	.	8g/L	.	8cc\L	.	2E,<\	-men	2c\	a-	.	2b-X\	a-	(2gg\	a-	2g\	.	2b-\	.	2cc\	.	2bb-\	.
.	.	.	8e\	.	8cc/	.	8bb-\	.	.	.	.	.	.	.	.	.	.	.	.	.	.	.	.	.	.
.	.	.	8e\	.	8g/	.	8cc\	.	.	.	.	.	.	.	.	.	.	.	.	.	.	.	.	.	.
.	.	.	8e\J	.	8cc/J	.	8bb-\J	.	.	.	.	.	.	.	.	.	.	.	.	.	.	.	.	.	.
*	*	*	*Xtremolo	*	*tremolo	*	*	*	*	*ij	*	*	*	*	*	*	*	*	*	*	*	*	*	*	*
=114	=114	=114	=114	=114	=114	=114	=114	=114	=114	=114	=114	=114	=114	=114	=114	=114	=114	=114	=114	=114	=114	=114	=114	=114	=114
2F\	.	.	4f\	.	8a/L	.	8cc\L	.	2F\	a-	2c,<\	-men	.	2a\	.	2ff\)	.	2f\	.	2a\	.	2cc\	.	2aa\	.
*	*	*	*	*	*	*	*	*	*	*	*	*Xij	*	*	*	*	*	*	*	*	*	*	*	*	*
.	.	.	.	.	8a/	.	8aa\	.	.	.	.	.	.	.	.	.	.	.	.	.	.	.	.	.	.
.	.	.	4f\	.	8a/	.	8cc\	.	.	.	.	.	.	.	.	.	.	.	.	.	.	.	.	.	.
.	.	.	.	.	8a/J	.	8aa\J	.	.	.	.	.	.	.	.	.	.	.	.	.	.	.	.	.	.
2d\	.	.	4d\	.	8a/L	.	8a\L	.	2d\	-men	2d\	a-	.	2a\	.	2ff\	-men	2f\	.	2a\	.	2ff\	.	2ff\	.
.	.	.	.	.	8a/	.	8ff\	.	.	.	.	.	.	.	.	.	.	.	.	.	.	.	.	.	.
.	.	.	4d\	.	8a/	.	8a\	.	.	.	.	.	.	.	.	.	.	.	.	.	.	.	.	.	.
.	.	.	.	.	8a/J	.	8ff\J	.	.	.	.	.	.	.	.	.	.	.	.	.	.	.	.	.	.
=115	=115	=115	=115	=115	=115	=115	=115	=115	=115	=115	=115	=115	=115	=115	=115	=115	=115	=115	=115	=115	=115	=115	=115	=115	=115
*	*	*	*	*	*	*	*	*	*	*	*	*	*	*	*	*	*ij	*	*	*	*	*	*	*	*
2B-\	6 5	.	4d\	.	8g/L	.	8ff\L	.	(2B-\	a-	2d\	.	.	1g\	.	(>2ff\	a-	2g\	.	1g/	.	2dd\	.	2ff\	.
.	.	.	.	.	8g/	.	8ff\	.	.	.	.	.	.	.	.	.	.	.	.	.	.	.	.	.	.
.	.	.	4d\	.	8g/	.	8ff\	.	.	.	.	.	.	.	.	.	.	.	.	.	.	.	.	.	.
.	.	.	.	.	8g/J	.	8ff\J	.	.	.	.	.	.	.	.	.	.	.	.	.	.	.	.	.	.
2c\	.	.	4c\	.	8g/L	.	8ee\L	.	2c\)	.	2c\	.	.	.	.	2ee\)	.	2c/	.	.	.	2cc\	.	2ee\	.
.	.	.	.	.	8g/	.	8ee\	.	.	.	.	.	.	.	.	.	.	.	.	.	.	.	.	.	.
.	.	.	4c\	.	8g/	.	8ee\	.	.	.	.	.	.	.	.	.	.	.	.	.	.	.	.	.	.
.	.	.	.	.	8g/J	.	8ee\J	.	.	.	.	.	.	.	.	.	.	.	.	.	.	.	.	.	.
*	*	*	*	*	*Xtremolo	*	*	*	*	*	*	*	*	*	*	*	*	*	*	*	*	*	*	*	*
=116	=116	=116	=116	=116	=116	=116	=116	=116	=116	=116	=116	=116	=116	=116	=116	=116	=116	=116	=116	=116	=116	=116	=116	=116	=116
2F\	.	.	2c\	.	2a/	.	2ff\	.	2F\	-men	2c\	-men.	.	2a\	-men.	2ff\	-men	2A/	.	2f\	.	2cc\	.	2ff\	.
*	*	*	*	*	*	*	*	*	*	*Xij	*	*	*	*	*	*	*Xij	*	*	*	*	*	*	*	*
2r	.	.	2r	.	2r	.	2r	.	2r	.	2r	.	.	2r	.	2r	.	2r	.	2r	.	2r	.	2r	.
==	==	==	==	==	==	==	==	==	==	==	==	==	==	==	==	==	==	==	==	==	==	==	==	==	==
*-	*-	*-	*-	*-	*-	*-	*-	*-	*-	*-	*-	*-	*-	*-	*-	*-	*-	*-	*-	*-	*-	*-	*-	*-	*-
!!!system-decoration: [(s1,s2)][(s3,s4)][(s5,s6,s7,s8)][(s9,s10,s11)]s12
!!!RDF**dynam: p = p.
!!!RDF**dynam: f = for.
!!!RDF**dynam: ff = fortiſ
!!!RDF**kern: > = above
!!!RDF**kern: < = below
!!!RDF**dynam: < = Creſ:
!!!RDF**kern: | = vertical stroke
!!!ENC: Andrzej Borzym
!!!END: 2020-10-01
!!!EED: Andrzej Borzym
!!!EEV: 2022-01-15
!!!YEC: Copyright 2022 Narodowy Instytut Fryderyka Chopina (https://polishscores.org)
!!!YEM: Licence CC BY 4.0 (https://creativecommons.org/licenses/by/4.0)
